;FLAVOR:Marlin
;TIME:2975
;Filament used: 1.58495m
;Layer height: 0.12
;MINX:98.485
;MINY:85.535
;MINZ:0.12
;MAXX:121.515
;MAXY:135.465
;MAXZ:9.96
;TARGET_MACHINE.NAME:Creality Ender-3 Pro
;Generated with Cura_SteamEngine 5.10.0
; Ender 3 Custom Start G-code
G92 E0 ; Reset Extruder
G28 ; Home all axes
G1 Z5.0 F3000 ; Move Z Axis up a bit during heating to not damage bed
M104 S175 ; Start heating up the nozzle most of the way
M190 S65 ; Start heating the bed, wait until target temperature reached
M109 S205 ; Finish heating the nozzle
G1 Z2.0 F3000 ; Move Z Axis up little to prevent scratching of Heat Bed
G1 X0.1 Y20 Z0.3 F5000.0 ; Move to start position
G1 X0.1 Y200.0 Z0.3 F1500.0 E15 ; Draw the first line
G1 X0.4 Y200.0 Z0.3 F5000.0 ; Move to side a little
G1 X0.4 Y20 Z0.3 F1500.0 E30 ; Draw the second line
G92 E0 ; Reset Extruder
G1 Z2.0 F3000 ; Move Z Axis up little to prevent scratching of Heat Bed
G1 X5 Y20 Z0.3 F5000.0 ; Move over to prevent blob squish
M82 ;absolute extrusion mode
G92 E0
G92 E0
G1 F1500 E-6.5
;LAYER_COUNT:83
;LAYER:0
M107
;MESH:IRSender-Arduino Box_v4.stl
G0 F6000 X119.848 Y132.8 Z0.12
;TYPE:WALL-INNER
G1 F1500 E0
G1 F1200 X119.848 Y87.2 E0.91
G1 X100.148 Y87.2 E1.30313
G1 X100.148 Y132.8 E2.21313
G1 X119.848 Y132.8 E2.60626
G0 F6000 X120.248 Y133.2
G1 F1200 X120.248 Y86.8 E3.53223
G1 X99.748 Y86.8 E3.94133
G1 X99.748 Y133.2 E4.86729
G1 X120.248 Y133.2 E5.27639
G0 F6000 X120.648 Y133.6
;TYPE:WALL-OUTER
G1 F1200 X120.648 Y86.4 E6.21831
G1 X99.348 Y86.4 E6.64338
G1 X99.348 Y133.6 E7.58531
G1 X120.648 Y133.6 E8.01037
G0 F6000 X120.37 Y133.32
G0 X119.748 Y132.44
G0 X119.488 Y132.44
;TYPE:SKIN
G1 F1200 X100.508 Y132.44 E8.38914
G1 X100.508 Y87.56 E9.28477
G1 X119.488 Y87.56 E9.66353
G1 X119.488 Y132.44 E10.55916
G0 F6000 X119.748 Y132.44
G0 X100.32 Y132.628
G0 X100.248 Y131.821
G0 X100.708 Y131.821
G1 F1200 X101.127 Y132.24 E10.57099
G0 F6000 X101.693 Y132.24
G1 F1200 X100.708 Y131.255 E10.59879
G0 F6000 X100.708 Y130.69
G1 F1200 X102.258 Y132.24 E10.64253
G0 F6000 X102.824 Y132.24
G1 F1200 X100.708 Y130.124 E10.70225
G0 F6000 X100.708 Y129.558
G1 F1200 X103.39 Y132.24 E10.77794
G0 F6000 X103.955 Y132.24
G1 F1200 X100.708 Y128.993 E10.86958
G0 F6000 X100.708 Y128.427
G1 F1200 X104.521 Y132.24 E10.97719
G0 F6000 X105.087 Y132.24
G1 F1200 X100.708 Y127.861 E11.10077
G0 F6000 X100.708 Y127.295
G1 F1200 X105.652 Y132.24 E11.24032
G0 F6000 X106.218 Y132.24
G1 F1200 X100.708 Y126.73 E11.39582
G0 F6000 X100.708 Y126.164
G1 F1200 X106.784 Y132.24 E11.5673
G0 F6000 X107.349 Y132.24
G1 F1200 X100.708 Y125.598 E11.75474
G0 F6000 X100.708 Y125.033
G1 F1200 X107.915 Y132.24 E11.95813
G0 F6000 X108.481 Y132.24
G1 F1200 X100.708 Y124.467 E12.1775
G0 F6000 X100.708 Y123.901
G1 F1200 X109.046 Y132.24 E12.41284
G0 F6000 X109.612 Y132.24
G1 F1200 X100.708 Y123.336 E12.66413
G0 F6000 X100.708 Y122.77
G1 F1200 X110.178 Y132.24 E12.93139
G0 F6000 X110.744 Y132.24
G1 F1200 X100.708 Y122.204 E13.21463
G0 F6000 X100.708 Y121.639
G1 F1200 X111.309 Y132.24 E13.51381
G0 F6000 X111.875 Y132.24
G1 F1200 X100.708 Y121.073 E13.82897
G0 F6000 X100.708 Y120.507
G1 F1200 X112.441 Y132.24 E14.1601
G0 F6000 X113.006 Y132.24
G1 F1200 X100.708 Y119.942 E14.50717
G0 F6000 X100.708 Y119.376
G1 F1200 X113.572 Y132.24 E14.87022
G0 F6000 X114.138 Y132.24
G1 F1200 X100.708 Y118.81 E15.24925
G0 F6000 X100.708 Y118.245
G1 F1200 X114.703 Y132.24 E15.64422
G0 F6000 X115.269 Y132.24
G1 F1200 X100.708 Y117.679 E16.05516
G0 F6000 X100.708 Y117.113
G1 F1200 X115.835 Y132.24 E16.48208
G0 F6000 X116.4 Y132.24
G1 F1200 X100.708 Y116.547 E16.92495
G0 F6000 X100.708 Y115.982
G1 F1200 X116.966 Y132.24 E17.38379
G0 F6000 X117.532 Y132.24
G1 F1200 X100.708 Y115.416 E17.8586
G0 F6000 X100.708 Y114.85
G1 F1200 X118.097 Y132.24 E18.34937
G0 F6000 X118.663 Y132.24
G1 F1200 X100.708 Y114.285 E18.8561
G0 F6000 X100.708 Y113.719
G1 F1200 X119.229 Y132.24 E19.3788
G0 F6000 X119.288 Y131.733
G1 F1200 X100.708 Y113.153 E19.90317
G0 F6000 X100.708 Y112.588
G1 F1200 X119.288 Y131.168 E20.42753
G0 F6000 X119.288 Y130.602
G1 F1200 X100.708 Y112.022 E20.9519
G0 F6000 X100.708 Y111.456
G1 F1200 X119.288 Y130.036 E21.47627
G0 F6000 X119.288 Y129.471
G1 F1200 X100.708 Y110.891 E22.00064
G0 F6000 X100.708 Y110.325
G1 F1200 X119.288 Y128.905 E22.525
G0 F6000 X119.288 Y128.339
G1 F1200 X100.708 Y109.759 E23.04937
G0 F6000 X100.708 Y109.194
G1 F1200 X119.288 Y127.773 E23.57373
G0 F6000 X119.288 Y127.208
G1 F1200 X100.708 Y108.628 E24.09809
G0 F6000 X100.708 Y108.062
G1 F1200 X119.288 Y126.642 E24.62246
G0 F6000 X119.288 Y126.076
G1 F1200 X100.708 Y107.496 E25.14683
G0 F6000 X100.708 Y106.931
G1 F1200 X119.288 Y125.511 E25.6712
G0 F6000 X119.288 Y124.945
G1 F1200 X100.708 Y106.365 E26.19556
G0 F6000 X100.708 Y105.799
G1 F1200 X119.288 Y124.379 E26.71993
G0 F6000 X119.288 Y123.814
G1 F1200 X100.708 Y105.234 E27.2443
G0 F6000 X100.708 Y104.668
G1 F1200 X119.288 Y123.248 E27.76867
G0 F6000 X119.288 Y122.682
G1 F1200 X100.708 Y104.102 E28.29304
G0 F6000 X100.708 Y103.537
G1 F1200 X119.288 Y122.117 E28.8174
G0 F6000 X119.288 Y121.551
G1 F1200 X100.708 Y102.971 E29.34177
G0 F6000 X100.708 Y102.405
G1 F1200 X119.288 Y120.985 E29.86614
G0 F6000 X119.288 Y120.42
G1 F1200 X100.708 Y101.84 E30.39051
G0 F6000 X100.708 Y101.274
G1 F1200 X119.288 Y119.854 E30.91487
G0 F6000 X119.288 Y119.288
G1 F1200 X100.708 Y100.708 E31.43924
G0 F6000 X100.708 Y100.143
G1 F1200 X119.288 Y118.723 E31.96361
G0 F6000 X119.288 Y118.157
G1 F1200 X100.708 Y99.577 E32.48798
G0 F6000 X100.708 Y99.011
G1 F1200 X119.288 Y117.591 E33.01235
G0 F6000 X119.288 Y117.025
G1 F1200 X100.708 Y98.446 E33.5367
G0 F6000 X100.708 Y97.88
G1 F1200 X119.288 Y116.46 E34.06107
G0 F6000 X119.288 Y115.894
G1 F1200 X100.708 Y97.314 E34.58543
G0 F6000 X100.708 Y96.748
G1 F1200 X119.288 Y115.328 E35.1098
G0 F6000 X119.288 Y114.763
G1 F1200 X100.708 Y96.183 E35.63417
G0 F6000 X100.708 Y95.617
G1 F1200 X119.288 Y114.197 E36.15854
G0 F6000 X119.288 Y113.631
G1 F1200 X100.708 Y95.051 E36.68291
G0 F6000 X100.708 Y94.486
G1 F1200 X119.288 Y113.066 E37.20727
G0 F6000 X119.288 Y112.5
G1 F1200 X100.708 Y93.92 E37.73164
G0 F6000 X100.708 Y93.354
G1 F1200 X119.288 Y111.934 E38.25601
G0 F6000 X119.288 Y111.369
G1 F1200 X100.708 Y92.789 E38.78038
G0 F6000 X100.708 Y92.223
G1 F1200 X119.288 Y110.803 E39.30474
G0 F6000 X119.288 Y110.237
G1 F1200 X100.708 Y91.657 E39.82911
G0 F6000 X100.708 Y91.092
G1 F1200 X119.288 Y109.672 E40.35348
G0 F6000 X119.288 Y109.106
G1 F1200 X100.708 Y90.526 E40.87785
G0 F6000 X100.708 Y89.96
G1 F1200 X119.288 Y108.54 E41.40222
G0 F6000 X119.288 Y107.974
G1 F1200 X100.708 Y89.395 E41.92657
G0 F6000 X100.708 Y88.829
G1 F1200 X119.288 Y107.409 E42.45094
G0 F6000 X119.288 Y106.843
G1 F1200 X100.708 Y88.263 E42.9753
G0 F6000 X100.77 Y87.76
G1 F1200 X119.288 Y106.277 E43.49791
G0 F6000 X119.288 Y105.712
G1 F1200 X101.336 Y87.76 E44.00455
G0 F6000 X101.902 Y87.76
G1 F1200 X119.288 Y105.146 E44.49522
G0 F6000 X119.288 Y104.58
G1 F1200 X102.468 Y87.76 E44.96992
G0 F6000 X103.033 Y87.76
G1 F1200 X119.288 Y104.015 E45.42867
G0 F6000 X119.288 Y103.449
G1 F1200 X103.599 Y87.76 E45.87145
G0 F6000 X104.165 Y87.76
G1 F1200 X119.288 Y102.883 E46.29825
G0 F6000 X119.288 Y102.318
G1 F1200 X104.73 Y87.76 E46.70911
G0 F6000 X105.296 Y87.76
G1 F1200 X119.288 Y101.752 E47.10399
G0 F6000 X119.288 Y101.186
G1 F1200 X105.862 Y87.76 E47.48291
G0 F6000 X106.427 Y87.76
G1 F1200 X119.288 Y100.621 E47.84587
G0 F6000 X119.288 Y100.055
G1 F1200 X106.993 Y87.76 E48.19286
G0 F6000 X107.559 Y87.76
G1 F1200 X119.288 Y99.489 E48.52388
G0 F6000 X119.288 Y98.924
G1 F1200 X108.124 Y87.76 E48.83895
G0 F6000 X108.69 Y87.76
G1 F1200 X119.288 Y98.358 E49.13805
G0 F6000 X119.288 Y97.792
G1 F1200 X109.256 Y87.76 E49.42118
G0 F6000 X109.821 Y87.76
G1 F1200 X119.288 Y97.226 E49.68834
G0 F6000 X119.288 Y96.661
G1 F1200 X110.387 Y87.76 E49.93955
G0 F6000 X110.953 Y87.76
G1 F1200 X119.288 Y96.095 E50.17478
G0 F6000 X119.288 Y95.529
G1 F1200 X111.519 Y87.76 E50.39404
G0 F6000 X112.084 Y87.76
G1 F1200 X119.288 Y94.964 E50.59735
G0 F6000 X119.288 Y94.398
G1 F1200 X112.65 Y87.76 E50.78469
G0 F6000 X113.216 Y87.76
G1 F1200 X119.288 Y93.832 E50.95605
G0 F6000 X119.288 Y93.267
G1 F1200 X113.781 Y87.76 E51.11147
G0 F6000 X114.347 Y87.76
G1 F1200 X119.288 Y92.701 E51.25092
G0 F6000 X119.288 Y92.135
G1 F1200 X114.913 Y87.76 E51.37439
G0 F6000 X115.478 Y87.76
G1 F1200 X119.288 Y91.57 E51.48192
G0 F6000 X119.288 Y91.004
G1 F1200 X116.044 Y87.76 E51.57347
G0 F6000 X116.61 Y87.76
G1 F1200 X119.288 Y90.438 E51.64905
G0 F6000 X119.288 Y89.873
G1 F1200 X117.175 Y87.76 E51.70868
G0 F6000 X117.741 Y87.76
G1 F1200 X119.288 Y89.307 E51.75234
G0 F6000 X119.288 Y88.741
G1 F1200 X118.307 Y87.76 E51.78003
G0 F6000 X118.872 Y87.76
G1 F1200 X119.288 Y88.176 E51.79177
M104 S205
G1 F1500 E45.29177
;MESH:NONMESH
G0 F300 X119.288 Y88.176 Z0.24
G0 F6000 X119.748 Y88.176
G0 X119.848 Y132.8
;TIME_ELAPSED:144.069544
;LAYER:1
M106 S85
;TYPE:WALL-INNER
;MESH:IRSender-Arduino Box_v4.stl
G1 F1500 E51.79177
G1 F1950 X119.848 Y87.2 E52.70176
G1 X100.148 Y87.2 E53.0949
G1 X100.148 Y132.8 E54.0049
G1 X119.848 Y132.8 E54.39803
G0 F9750 X120.248 Y133.2
G1 F1950 X120.248 Y86.8 E55.32399
G1 X99.748 Y86.8 E55.73309
G1 X99.748 Y133.2 E56.65905
G1 X120.248 Y133.2 E57.06815
G0 F9750 X120.648 Y133.6
;TYPE:WALL-OUTER
G1 F1950 X120.648 Y86.4 E58.01008
G1 X99.348 Y86.4 E58.43515
G1 X99.348 Y133.6 E59.37707
G1 X120.648 Y133.6 E59.80214
G0 F9750 X120.37 Y133.32
G0 X119.748 Y132.44
G0 X119.488 Y132.44
;TYPE:SKIN
G1 F1950 X100.508 Y132.44 E60.1809
G1 X100.508 Y87.56 E61.07653
G1 X119.488 Y87.56 E61.4553
G1 X119.488 Y132.44 E62.35093
G0 F9750 X118.925 Y132.24
G1 F1950 X119.288 Y131.876 E62.36119
G0 F9750 X119.288 Y131.31
G1 F1950 X118.359 Y132.24 E62.38742
G0 F9750 X117.793 Y132.24
G1 F1950 X119.288 Y130.745 E62.42961
G0 F9750 X119.288 Y130.179
G1 F1950 X117.228 Y132.24 E62.48776
G0 F9750 X116.662 Y132.24
G1 F1950 X119.288 Y129.613 E62.56189
G0 F9750 X119.288 Y129.048
G1 F1950 X116.096 Y132.24 E62.65197
G0 F9750 X115.531 Y132.24
G1 F1950 X119.288 Y128.482 E62.75802
G0 F9750 X119.288 Y127.916
G1 F1950 X114.965 Y132.24 E62.88004
G0 F9750 X114.399 Y132.24
G1 F1950 X119.288 Y127.351 E63.01802
G0 F9750 X119.288 Y126.785
G1 F1950 X113.834 Y132.24 E63.17195
G0 F9750 X113.268 Y132.24
G1 F1950 X119.288 Y126.219 E63.34186
G0 F9750 X119.288 Y125.654
G1 F1950 X112.702 Y132.24 E63.52774
G0 F9750 X112.137 Y132.24
G1 F1950 X119.288 Y125.088 E63.72957
G0 F9750 X119.288 Y124.522
G1 F1950 X111.571 Y132.24 E63.94737
G0 F9750 X111.005 Y132.24
G1 F1950 X119.288 Y123.957 E64.18113
G0 F9750 X119.288 Y123.391
G1 F1950 X110.439 Y132.24 E64.43087
G0 F9750 X109.874 Y132.24
G1 F1950 X119.288 Y122.825 E64.69657
G0 F9750 X119.288 Y122.259
G1 F1950 X109.308 Y132.24 E64.97824
G0 F9750 X108.742 Y132.24
G1 F1950 X119.288 Y121.694 E65.27587
G0 F9750 X119.288 Y121.128
G1 F1950 X108.177 Y132.24 E65.58946
G0 F9750 X107.611 Y132.24
G1 F1950 X119.288 Y120.562 E65.91903
G0 F9750 X119.288 Y119.997
G1 F1950 X107.045 Y132.24 E66.26455
G0 F9750 X106.48 Y132.24
G1 F1950 X119.288 Y119.431 E66.62603
G0 F9750 X119.288 Y118.865
G1 F1950 X105.914 Y132.24 E67.00349
G0 F9750 X105.348 Y132.24
G1 F1950 X119.288 Y118.3 E67.39691
G0 F9750 X119.288 Y117.734
G1 F1950 X104.783 Y132.24 E67.80629
G0 F9750 X104.217 Y132.24
G1 F1950 X119.288 Y117.168 E68.23164
G0 F9750 X119.288 Y116.603
G1 F1950 X103.651 Y132.24 E68.67295
G0 F9750 X103.086 Y132.24
G1 F1950 X119.288 Y116.037 E69.13022
G0 F9750 X119.288 Y115.471
G1 F1950 X102.52 Y132.24 E69.60346
G0 F9750 X101.954 Y132.24
G1 F1950 X119.288 Y114.906 E70.09266
G0 F9750 X119.288 Y114.34
G1 F1950 X101.389 Y132.24 E70.59782
G0 F9750 X100.823 Y132.24
G1 F1950 X119.288 Y113.774 E71.11896
G0 F9750 X119.288 Y113.209
G1 F1950 X100.708 Y131.788 E71.64331
G0 F9750 X100.708 Y131.223
G1 F1950 X119.288 Y112.643 E72.16768
G0 F9750 X119.288 Y112.077
G1 F1950 X100.708 Y130.657 E72.69205
G0 F9750 X100.708 Y130.091
G1 F1950 X119.288 Y111.511 E73.21642
G0 F9750 X119.288 Y110.946
G1 F1950 X100.708 Y129.526 E73.74079
G0 F9750 X100.708 Y128.96
G1 F1950 X119.288 Y110.38 E74.26515
G0 F9750 X119.288 Y109.814
G1 F1950 X100.708 Y128.394 E74.78952
G0 F9750 X100.708 Y127.829
G1 F1950 X119.288 Y109.249 E75.31389
G0 F9750 X119.288 Y108.683
G1 F1950 X100.708 Y127.263 E75.83826
G0 F9750 X100.708 Y126.697
G1 F1950 X119.288 Y108.117 E76.36262
G0 F9750 X119.288 Y107.552
G1 F1950 X100.708 Y126.132 E76.88699
G0 F9750 X100.708 Y125.566
G1 F1950 X119.288 Y106.986 E77.41136
G0 F9750 X119.288 Y106.42
G1 F1950 X100.708 Y125 E77.93573
G0 F9750 X100.708 Y124.435
G1 F1950 X119.288 Y105.855 E78.46009
G0 F9750 X119.288 Y105.289
G1 F1950 X100.708 Y123.869 E78.98446
G0 F9750 X100.708 Y123.303
G1 F1950 X119.288 Y104.723 E79.50883
G0 F9750 X119.288 Y104.158
G1 F1950 X100.708 Y122.737 E80.03318
G0 F9750 X100.708 Y122.172
G1 F1950 X119.288 Y103.592 E80.55755
G0 F9750 X119.288 Y103.026
G1 F1950 X100.708 Y121.606 E81.08192
G0 F9750 X100.708 Y121.04
G1 F1950 X119.288 Y102.46 E81.60629
G0 F9750 X119.288 Y101.895
G1 F1950 X100.708 Y120.475 E82.13065
G0 F9750 X100.708 Y119.909
G1 F1950 X119.288 Y101.329 E82.65502
G0 F9750 X119.288 Y100.763
G1 F1950 X100.708 Y119.343 E83.17939
G0 F9750 X100.708 Y118.778
G1 F1950 X119.288 Y100.198 E83.70376
G0 F9750 X119.288 Y99.632
G1 F1950 X100.708 Y118.212 E84.22813
G0 F9750 X100.708 Y117.646
G1 F1950 X119.288 Y99.066 E84.75249
G0 F9750 X119.288 Y98.501
G1 F1950 X100.708 Y117.081 E85.27686
G0 F9750 X100.708 Y116.515
G1 F1950 X119.288 Y97.935 E85.80123
G0 F9750 X119.288 Y97.369
G1 F1950 X100.708 Y115.949 E86.3256
G0 F9750 X100.708 Y115.384
G1 F1950 X119.288 Y96.804 E86.84996
G0 F9750 X119.288 Y96.238
G1 F1950 X100.708 Y114.818 E87.37433
G0 F9750 X100.708 Y114.252
G1 F1950 X119.288 Y95.672 E87.8987
G0 F9750 X119.288 Y95.107
G1 F1950 X100.708 Y113.687 E88.42307
G0 F9750 X100.708 Y113.121
G1 F1950 X119.288 Y94.541 E88.94744
G0 F9750 X119.288 Y93.975
G1 F1950 X100.708 Y112.555 E89.4718
G0 F9750 X100.708 Y111.989
G1 F1950 X119.288 Y93.41 E89.99616
G0 F9750 X119.288 Y92.844
G1 F1950 X100.708 Y111.424 E90.52052
G0 F9750 X100.708 Y110.858
G1 F1950 X119.288 Y92.278 E91.04489
G0 F9750 X119.288 Y91.712
G1 F1950 X100.708 Y110.292 E91.56926
G0 F9750 X100.708 Y109.727
G1 F1950 X119.288 Y91.147 E92.09363
G0 F9750 X119.288 Y90.581
G1 F1950 X100.708 Y109.161 E92.618
G0 F9750 X100.708 Y108.595
G1 F1950 X119.288 Y90.015 E93.14236
G0 F9750 X119.288 Y89.45
G1 F1950 X100.708 Y108.03 E93.66673
G0 F9750 X100.708 Y107.464
G1 F1950 X119.288 Y88.884 E94.1911
G0 F9750 X119.288 Y88.318
G1 F1950 X100.708 Y106.898 E94.71547
G0 F9750 X100.708 Y106.333
G1 F1950 X119.281 Y87.76 E95.23964
G0 F9750 X118.715 Y87.76
G1 F1950 X100.708 Y105.767 E95.74783
G0 F9750 X100.708 Y105.201
G1 F1950 X118.15 Y87.76 E96.24007
G0 F9750 X117.584 Y87.76
G1 F1950 X100.708 Y104.636 E96.71635
G0 F9750 X100.708 Y104.07
G1 F1950 X117.018 Y87.76 E97.17665
G0 F9750 X116.453 Y87.76
G1 F1950 X100.708 Y103.504 E97.62099
G0 F9750 X100.708 Y102.938
G1 F1950 X115.887 Y87.76 E98.04936
G0 F9750 X115.321 Y87.76
G1 F1950 X100.708 Y102.373 E98.46177
G0 F9750 X100.708 Y101.807
G1 F1950 X114.756 Y87.76 E98.85823
G0 F9750 X114.19 Y87.76
G1 F1950 X100.708 Y101.241 E99.2387
G0 F9750 X100.708 Y100.676
G1 F1950 X113.624 Y87.76 E99.60322
G0 F9750 X113.059 Y87.76
G1 F1950 X100.708 Y100.11 E99.95178
G0 F9750 X100.708 Y99.544
G1 F1950 X112.493 Y87.76 E100.28436
G0 F9750 X111.927 Y87.76
G1 F1950 X100.708 Y98.979 E100.60099
G0 F9750 X100.708 Y98.413
G1 F1950 X111.362 Y87.76 E100.90165
G0 F9750 X110.796 Y87.76
G1 F1950 X100.708 Y97.847 E101.18634
G0 F9750 X100.708 Y97.282
G1 F1950 X110.23 Y87.76 E101.45507
G0 F9750 X109.664 Y87.76
G1 F1950 X100.708 Y96.716 E101.70783
G0 F9750 X100.708 Y96.15
G1 F1950 X109.099 Y87.76 E101.94463
G0 F9750 X108.533 Y87.76
G1 F1950 X100.708 Y95.585 E102.16547
G0 F9750 X100.708 Y95.019
G1 F1950 X107.967 Y87.76 E102.37033
G0 F9750 X107.402 Y87.76
G1 F1950 X100.708 Y94.453 E102.55924
G0 F9750 X100.708 Y93.888
G1 F1950 X106.836 Y87.76 E102.73218
G0 F9750 X106.27 Y87.76
G1 F1950 X100.708 Y93.322 E102.88915
