;FLAVOR:Marlin
;TIME:3696
;Filament used: 2.29679m
;Layer height: 0.12
;MINX:99.3
;MINY:85.547
;MINZ:0.12
;MAXX:144.715
;MAXY:135.465
;MAXZ:9.96
;TARGET_MACHINE.NAME:Creality Ender-3 Pro
;Generated with Cura_SteamEngine 5.10.0
; Ender 3 Custom Start G-code
G92 E0 ; Reset Extruder
G28 ; Home all axes
G1 Z5.0 F3000 ; Move Z Axis up a bit during heating to not damage bed
M104 S175 ; Start heating up the nozzle most of the way
M190 S65 ; Start heating the bed, wait until target temperature reached
M109 S205 ; Finish heating the nozzle
G1 Z2.0 F3000 ; Move Z Axis up little to prevent scratching of Heat Bed
G1 X0.1 Y20 Z0.3 F5000.0 ; Move to start position
G1 X0.1 Y200.0 Z0.3 F1500.0 E15 ; Draw the first line
G1 X0.4 Y200.0 Z0.3 F5000.0 ; Move to side a little
G1 X0.4 Y20 Z0.3 F1500.0 E30 ; Draw the second line
G92 E0 ; Reset Extruder
G1 Z2.0 F3000 ; Move Z Axis up little to prevent scratching of Heat Bed
G1 X5 Y20 Z0.3 F5000.0 ; Move over to prevent blob squish
M82 ;absolute extrusion mode
G92 E0
G92 E0
G1 F1500 E-6.5
;LAYER_COUNT:83
;LAYER:0
M107
;MESH:IRSender-Arduino Box Lid.stl
G0 F6000 X119.8 Y132.8 Z0.12
;TYPE:WALL-INNER
G1 F1500 E0
G1 F1200 X119.8 Y87.2 E0.91
G1 X100.1 Y87.2 E1.30313
G1 X100.1 Y132.8 E2.21313
G1 X119.8 Y132.8 E2.60626
G0 F6000 X120.2 Y133.2
G1 F1200 X120.2 Y86.8 E3.53223
G1 X99.7 Y86.8 E3.94133
G1 X99.7 Y133.2 E4.86729
G1 X120.2 Y133.2 E5.27639
G0 F6000 X120.6 Y133.6
;TYPE:WALL-OUTER
G1 F1200 X120.6 Y86.4 E6.21831
G1 X99.3 Y86.4 E6.64338
G1 X99.3 Y133.6 E7.58531
G1 X120.6 Y133.6 E8.01037
G0 F6000 X120.32 Y133.32
G0 X119.7 Y132.44
G0 X119.44 Y132.44
;TYPE:SKIN
G1 F1200 X100.46 Y132.44 E8.38914
G1 X100.46 Y87.56 E9.28477
G1 X119.44 Y87.56 E9.66353
G1 X119.44 Y132.44 E10.55916
G0 F6000 X119.7 Y132.44
G0 X100.272 Y132.628
G0 X100.2 Y131.773
G0 X100.66 Y131.773
G1 F1200 X101.127 Y132.24 E10.57234
G0 F6000 X101.693 Y132.24
G1 F1200 X100.66 Y131.207 E10.60149
G0 F6000 X100.66 Y130.642
G1 F1200 X102.258 Y132.24 E10.64659
G0 F6000 X102.824 Y132.24
G1 F1200 X100.66 Y130.076 E10.70767
G0 F6000 X100.66 Y129.51
G1 F1200 X103.39 Y132.24 E10.78471
G0 F6000 X103.955 Y132.24
G1 F1200 X100.66 Y128.944 E10.87772
G0 F6000 X100.66 Y128.379
G1 F1200 X104.521 Y132.24 E10.98668
G0 F6000 X105.087 Y132.24
G1 F1200 X100.66 Y127.813 E11.11162
G0 F6000 X100.66 Y127.247
G1 F1200 X105.652 Y132.24 E11.25252
G0 F6000 X106.218 Y132.24
G1 F1200 X100.66 Y126.682 E11.40938
G0 F6000 X100.66 Y126.116
G1 F1200 X106.784 Y132.24 E11.58221
G0 F6000 X107.349 Y132.24
G1 F1200 X100.66 Y125.55 E11.77101
G0 F6000 X100.66 Y124.985
G1 F1200 X107.915 Y132.24 E11.97576
G0 F6000 X108.481 Y132.24
G1 F1200 X100.66 Y124.419 E12.19648
G0 F6000 X100.66 Y123.853
G1 F1200 X109.046 Y132.24 E12.43317
G0 F6000 X109.612 Y132.24
G1 F1200 X100.66 Y123.288 E12.68581
G0 F6000 X100.66 Y122.722
G1 F1200 X110.178 Y132.24 E12.95443
G0 F6000 X110.744 Y132.24
G1 F1200 X100.66 Y122.156 E13.23903
G0 F6000 X100.66 Y121.591
G1 F1200 X111.309 Y132.24 E13.53956
G0 F6000 X111.875 Y132.24
G1 F1200 X100.66 Y121.025 E13.85607
G0 F6000 X100.66 Y120.459
G1 F1200 X112.441 Y132.24 E14.18856
G0 F6000 X113.006 Y132.24
G1 F1200 X100.66 Y119.893 E14.537
G0 F6000 X100.66 Y119.328
G1 F1200 X113.572 Y132.24 E14.90141
G0 F6000 X114.138 Y132.24
G1 F1200 X100.66 Y118.762 E15.28179
G0 F6000 X100.66 Y118.196
G1 F1200 X114.703 Y132.24 E15.67813
G0 F6000 X115.269 Y132.24
G1 F1200 X100.66 Y117.631 E16.09042
G0 F6000 X100.66 Y117.065
G1 F1200 X115.835 Y132.24 E16.51869
G0 F6000 X116.4 Y132.24
G1 F1200 X100.66 Y116.499 E16.96293
G0 F6000 X100.66 Y115.934
G1 F1200 X116.966 Y132.24 E17.42312
G0 F6000 X117.532 Y132.24
G1 F1200 X100.66 Y115.368 E17.89928
G0 F6000 X100.66 Y114.802
G1 F1200 X118.097 Y132.24 E18.3914
G0 F6000 X118.663 Y132.24
G1 F1200 X100.66 Y114.237 E18.89949
G0 F6000 X100.66 Y113.671
G1 F1200 X119.229 Y132.24 E19.42354
G0 F6000 X119.24 Y131.685
G1 F1200 X100.66 Y113.105 E19.94791
G0 F6000 X100.66 Y112.54
G1 F1200 X119.24 Y131.12 E20.47228
G0 F6000 X119.24 Y130.554
G1 F1200 X100.66 Y111.974 E20.99665
G0 F6000 X100.66 Y111.408
G1 F1200 X119.24 Y129.988 E21.52102
G0 F6000 X119.24 Y129.422
G1 F1200 X100.66 Y110.843 E22.04537
G0 F6000 X100.66 Y110.277
G1 F1200 X119.24 Y128.857 E22.56974
G0 F6000 X119.24 Y128.291
G1 F1200 X100.66 Y109.711 E23.0941
G0 F6000 X100.66 Y109.145
G1 F1200 X119.24 Y127.725 E23.61847
G0 F6000 X119.24 Y127.16
G1 F1200 X100.66 Y108.58 E24.14284
G0 F6000 X100.66 Y108.014
G1 F1200 X119.24 Y126.594 E24.66721
G0 F6000 X119.24 Y126.028
G1 F1200 X100.66 Y107.448 E25.19158
G0 F6000 X100.66 Y106.883
G1 F1200 X119.24 Y125.463 E25.71594
G0 F6000 X119.24 Y124.897
G1 F1200 X100.66 Y106.317 E26.24031
G0 F6000 X100.66 Y105.751
G1 F1200 X119.24 Y124.331 E26.76468
G0 F6000 X119.24 Y123.766
G1 F1200 X100.66 Y105.186 E27.28905
G0 F6000 X100.66 Y104.62
G1 F1200 X119.24 Y123.2 E27.81341
G0 F6000 X119.24 Y122.634
G1 F1200 X100.66 Y104.054 E28.33778
G0 F6000 X100.66 Y103.489
G1 F1200 X119.24 Y122.069 E28.86215
G0 F6000 X119.24 Y121.503
G1 F1200 X100.66 Y102.923 E29.38652
G0 F6000 X100.66 Y102.357
G1 F1200 X119.24 Y120.937 E29.91089
G0 F6000 X119.24 Y120.371
G1 F1200 X100.66 Y101.792 E30.43524
G0 F6000 X100.66 Y101.226
G1 F1200 X119.24 Y119.806 E30.95961
G0 F6000 X119.24 Y119.24
G1 F1200 X100.66 Y100.66 E31.48397
G0 F6000 X100.66 Y100.095
G1 F1200 X119.24 Y118.674 E32.00833
G0 F6000 X119.24 Y118.109
G1 F1200 X100.66 Y99.529 E32.5327
G0 F6000 X100.66 Y98.963
G1 F1200 X119.24 Y117.543 E33.05706
G0 F6000 X119.24 Y116.977
G1 F1200 X100.66 Y98.397 E33.58143
G0 F6000 X100.66 Y97.832
G1 F1200 X119.24 Y116.412 E34.1058
G0 F6000 X119.24 Y115.846
G1 F1200 X100.66 Y97.266 E34.63017
G0 F6000 X100.66 Y96.7
G1 F1200 X119.24 Y115.28 E35.15453
G0 F6000 X119.24 Y114.715
G1 F1200 X100.66 Y96.135 E35.6789
G0 F6000 X100.66 Y95.569
G1 F1200 X119.24 Y114.149 E36.20327
G0 F6000 X119.24 Y113.583
G1 F1200 X100.66 Y95.003 E36.72764
G0 F6000 X100.66 Y94.438
G1 F1200 X119.24 Y113.018 E37.25201
G0 F6000 X119.24 Y112.452
G1 F1200 X100.66 Y93.872 E37.77637
G0 F6000 X100.66 Y93.306
G1 F1200 X119.24 Y111.886 E38.30074
G0 F6000 X119.24 Y111.321
G1 F1200 X100.66 Y92.741 E38.82511
G0 F6000 X100.66 Y92.175
G1 F1200 X119.24 Y110.755 E39.34948
G0 F6000 X119.24 Y110.189
G1 F1200 X100.66 Y91.609 E39.87384
G0 F6000 X100.66 Y91.044
G1 F1200 X119.24 Y109.623 E40.3982
G0 F6000 X119.24 Y109.058
G1 F1200 X100.66 Y90.478 E40.92257
G0 F6000 X100.66 Y89.912
G1 F1200 X119.24 Y108.492 E41.44693
G0 F6000 X119.24 Y107.926
G1 F1200 X100.66 Y89.346 E41.9713
G0 F6000 X100.66 Y88.781
G1 F1200 X119.24 Y107.361 E42.49567
G0 F6000 X119.24 Y106.795
G1 F1200 X100.66 Y88.215 E43.02004
G0 F6000 X100.77 Y87.76
G1 F1200 X119.24 Y106.229 E43.54129
G0 F6000 X119.24 Y105.664
G1 F1200 X101.336 Y87.76 E44.04658
G0 F6000 X101.902 Y87.76
G1 F1200 X119.24 Y105.098 E44.53589
G0 F6000 X119.24 Y104.532
G1 F1200 X102.468 Y87.76 E45.00923
G0 F6000 X103.033 Y87.76
G1 F1200 X119.24 Y103.967 E45.46663
G0 F6000 X119.24 Y103.401
G1 F1200 X103.599 Y87.76 E45.90805
G0 F6000 X104.165 Y87.76
G1 F1200 X119.24 Y102.835 E46.3335
G0 F6000 X119.24 Y102.27
G1 F1200 X104.73 Y87.76 E46.74301
G0 F6000 X105.296 Y87.76
G1 F1200 X119.24 Y101.704 E47.13653
G0 F6000 X119.24 Y101.138
G1 F1200 X105.862 Y87.76 E47.51409
G0 F6000 X106.427 Y87.76
G1 F1200 X119.24 Y100.573 E47.8757
G0 F6000 X119.24 Y100.007
G1 F1200 X106.993 Y87.76 E48.22134
G0 F6000 X107.559 Y87.76
G1 F1200 X119.24 Y99.441 E48.551
G0 F6000 X119.24 Y98.875
G1 F1200 X108.124 Y87.76 E48.8647
G0 F6000 X108.69 Y87.76
G1 F1200 X119.24 Y98.31 E49.16245
G0 F6000 X119.24 Y97.744
G1 F1200 X109.256 Y87.76 E49.44422
G0 F6000 X109.821 Y87.76
G1 F1200 X119.24 Y97.178 E49.71003
G0 F6000 X119.24 Y96.613
G1 F1200 X110.387 Y87.76 E49.95988
G0 F6000 X110.953 Y87.76
G1 F1200 X119.24 Y96.047 E50.19376
G0 F6000 X119.24 Y95.481
G1 F1200 X111.519 Y87.76 E50.41166
G0 F6000 X112.084 Y87.76
G1 F1200 X119.24 Y94.916 E50.61362
G0 F6000 X119.24 Y94.35
G1 F1200 X112.65 Y87.76 E50.7996
G0 F6000 X113.216 Y87.76
G1 F1200 X119.24 Y93.784 E50.96961
G0 F6000 X119.24 Y93.219
G1 F1200 X113.781 Y87.76 E51.12368
G0 F6000 X114.347 Y87.76
G1 F1200 X119.24 Y92.653 E51.26177
G0 F6000 X119.24 Y92.087
G1 F1200 X114.913 Y87.76 E51.38389
G0 F6000 X115.478 Y87.76
G1 F1200 X119.24 Y91.522 E51.49006
G0 F6000 X119.24 Y90.956
G1 F1200 X116.044 Y87.76 E51.58026
G0 F6000 X116.61 Y87.76
G1 F1200 X119.24 Y90.39 E51.65448
G0 F6000 X119.24 Y89.824
G1 F1200 X117.175 Y87.76 E51.71274
G0 F6000 X117.741 Y87.76
G1 F1200 X119.24 Y89.259 E51.75505
G0 F6000 X119.24 Y88.693
G1 F1200 X118.307 Y87.76 E51.78138
G0 F6000 X118.872 Y87.76
G1 F1200 X119.24 Y88.127 E51.79175
G1 F1500 E45.29175
;MESH:IRSender-Arduino Box_v2.stl
G0 F6000 X119.7 Y88.127
G0 X120.37 Y132.8
G0 X122.78 Y132.8
G0 X143.048 Y132.8
;TYPE:WALL-INNER
G1 F1500 E51.79175
G1 F1200 X143.048 Y87.2 E52.70175
G1 X123.348 Y87.2 E53.09488
G1 X123.348 Y132.8 E54.00488
G1 X143.048 Y132.8 E54.39802
G0 F6000 X143.448 Y133.2
G1 F1200 X143.448 Y86.8 E55.32398
G1 X122.948 Y86.8 E55.73308
G1 X122.948 Y133.2 E56.65904
G1 X143.448 Y133.2 E57.06814
G0 F6000 X143.848 Y133.6
;TYPE:WALL-OUTER
G1 F1200 X143.848 Y86.4 E58.01007
G1 X122.548 Y86.4 E58.43513
G1 X122.548 Y133.6 E59.37706
G1 X143.848 Y133.6 E59.80212
G0 F6000 X143.57 Y133.32
G0 X142.948 Y132.44
G0 X142.688 Y132.44
;TYPE:SKIN
G1 F1200 X123.708 Y132.44 E60.18089
G1 X123.708 Y87.56 E61.07652
G1 X142.688 Y87.56 E61.45528
G1 X142.688 Y132.44 E62.35091
G0 F6000 X142.948 Y132.44
G0 X123.52 Y132.628
G0 X123.448 Y131.827
G0 X123.908 Y131.827
G1 F1200 X124.321 Y132.24 E62.36257
G0 F6000 X124.886 Y132.24
G1 F1200 X123.908 Y131.262 E62.39017
G0 F6000 X123.908 Y130.696
G1 F1200 X125.452 Y132.24 E62.43375
G0 F6000 X126.018 Y132.24
G1 F1200 X123.908 Y130.13 E62.49329
G0 F6000 X123.908 Y129.565
G1 F1200 X126.583 Y132.24 E62.56879
G0 F6000 X127.149 Y132.24
G1 F1200 X123.908 Y128.999 E62.66026
G0 F6000 X123.908 Y128.433
G1 F1200 X127.715 Y132.24 E62.7677
G0 F6000 X128.28 Y132.24
G1 F1200 X123.908 Y127.868 E62.89109
G0 F6000 X123.908 Y127.302
G1 F1200 X128.846 Y132.24 E63.03045
G0 F6000 X129.412 Y132.24
G1 F1200 X123.908 Y126.736 E63.18578
G0 F6000 X123.908 Y126.17
G1 F1200 X129.978 Y132.24 E63.35709
G0 F6000 X130.543 Y132.24
G1 F1200 X123.908 Y125.605 E63.54434
G0 F6000 X123.908 Y125.039
G1 F1200 X131.109 Y132.24 E63.74757
G0 F6000 X131.675 Y132.24
G1 F1200 X123.908 Y124.473 E63.96677
G0 F6000 X123.908 Y123.908
G1 F1200 X132.24 Y132.24 E64.20192
G0 F6000 X132.806 Y132.24
G1 F1200 X123.908 Y123.342 E64.45304
G0 F6000 X123.908 Y122.776
G1 F1200 X133.372 Y132.24 E64.72014
G0 F6000 X133.937 Y132.24
G1 F1200 X123.908 Y122.211 E65.00318
G0 F6000 X123.908 Y121.645
G1 F1200 X134.503 Y132.24 E65.30219
G0 F6000 X135.069 Y132.24
G1 F1200 X123.908 Y121.079 E65.61718
G0 F6000 X123.908 Y120.514
G1 F1200 X135.634 Y132.24 E65.94811
G0 F6000 X136.2 Y132.24
G1 F1200 X123.908 Y119.948 E66.29502
G0 F6000 X123.908 Y119.382
G1 F1200 X136.766 Y132.24 E66.6579
G0 F6000 X137.331 Y132.24
G1 F1200 X123.908 Y118.817 E67.03672
G0 F6000 X123.908 Y118.251
G1 F1200 X137.897 Y132.24 E67.43152
G0 F6000 X138.463 Y132.24
G1 F1200 X123.908 Y117.685 E67.8423
G0 F6000 X123.908 Y117.12
G1 F1200 X139.029 Y132.24 E68.26903
G0 F6000 X139.594 Y132.24
G1 F1200 X123.908 Y116.554 E68.71172
G0 F6000 X123.908 Y115.988
G1 F1200 X140.16 Y132.24 E69.17039
G0 F6000 X140.726 Y132.24
G1 F1200 X123.908 Y115.422 E69.64503
G0 F6000 X123.908 Y114.857
G1 F1200 X141.291 Y132.24 E70.13562
G0 F6000 X141.857 Y132.24
G1 F1200 X123.908 Y114.291 E70.64218
G0 F6000 X123.908 Y113.725
G1 F1200 X142.423 Y132.24 E71.16471
G0 F6000 X142.488 Y131.74
G1 F1200 X123.908 Y113.16 E71.68908
G0 F6000 X123.908 Y112.594
G1 F1200 X142.488 Y131.175 E72.21346
G0 F6000 X142.488 Y130.609
G1 F1200 X123.908 Y112.028 E72.73784
G0 F6000 X123.908 Y111.463
G1 F1200 X142.488 Y130.043 E73.26221
G0 F6000 X142.488 Y129.478
G1 F1200 X123.908 Y110.897 E73.78659
G0 F6000 X123.908 Y110.331
G1 F1200 X142.488 Y128.912 E74.31097
G0 F6000 X142.488 Y128.346
G1 F1200 X123.908 Y109.766 E74.83534
G0 F6000 X123.908 Y109.2
G1 F1200 X142.488 Y127.781 E75.35972
G0 F6000 X142.488 Y127.215
G1 F1200 X123.908 Y108.634 E75.8841
G0 F6000 X123.908 Y108.069
G1 F1200 X142.488 Y126.649 E76.40847
G0 F6000 X142.488 Y126.084
G1 F1200 X123.908 Y107.503 E76.93285
G0 F6000 X123.908 Y106.937
G1 F1200 X142.488 Y125.518 E77.45723
G0 F6000 X142.488 Y124.952
G1 F1200 X123.908 Y106.371 E77.98162
G0 F6000 X123.908 Y105.806
G1 F1200 X142.488 Y124.386 E78.50598
G0 F6000 X142.488 Y123.821
G1 F1200 X123.908 Y105.24 E79.03037
G0 F6000 X123.908 Y104.674
G1 F1200 X142.488 Y123.255 E79.55475
G0 F6000 X142.488 Y122.689
G1 F1200 X123.908 Y104.109 E80.07912
G0 F6000 X123.908 Y103.543
G1 F1200 X142.488 Y122.124 E80.6035
G0 F6000 X142.488 Y121.558
G1 F1200 X123.908 Y102.977 E81.12788
G0 F6000 X123.908 Y102.412
G1 F1200 X142.488 Y120.992 E81.65225
G0 F6000 X142.488 Y120.427
G1 F1200 X123.908 Y101.846 E82.17663
G0 F6000 X123.908 Y101.28
G1 F1200 X142.488 Y119.861 E82.70101
G0 F6000 X142.488 Y119.295
G1 F1200 X123.908 Y100.715 E83.22538
G0 F6000 X123.908 Y100.149
G1 F1200 X142.488 Y118.73 E83.74976
G0 F6000 X142.488 Y118.164
G1 F1200 X123.908 Y99.583 E84.27414
G0 F6000 X123.908 Y99.018
G1 F1200 X142.488 Y117.598 E84.79851
G0 F6000 X142.488 Y117.033
G1 F1200 X123.908 Y98.452 E85.32289
G0 F6000 X123.908 Y97.886
G1 F1200 X142.488 Y116.467 E85.84727
G0 F6000 X142.488 Y115.901
G1 F1200 X123.908 Y97.321 E86.37164
G0 F6000 X123.908 Y96.755
G1 F1200 X142.488 Y115.335 E86.89601
G0 F6000 X142.488 Y114.77
G1 F1200 X123.908 Y96.189 E87.42039
G0 F6000 X123.908 Y95.623
G1 F1200 X142.488 Y114.204 E87.94477
G0 F6000 X142.488 Y113.638
G1 F1200 X123.908 Y95.058 E88.46914
G0 F6000 X123.908 Y94.492
G1 F1200 X142.488 Y113.073 E88.99352
G0 F6000 X142.488 Y112.507
G1 F1200 X123.908 Y93.926 E89.5179
G0 F6000 X123.908 Y93.361
G1 F1200 X142.488 Y111.941 E90.04227
G0 F6000 X142.488 Y111.376
G1 F1200 X123.908 Y92.795 E90.56665
G0 F6000 X123.908 Y92.229
G1 F1200 X142.488 Y110.81 E91.09104
G0 F6000 X142.488 Y110.244
G1 F1200 X123.908 Y91.664 E91.6154
G0 F6000 X123.908 Y91.098
G1 F1200 X142.488 Y109.679 E92.13979
G0 F6000 X142.488 Y109.113
G1 F1200 X123.908 Y90.532 E92.66417
G0 F6000 X123.908 Y89.967
G1 F1200 X142.488 Y108.547 E93.18853
G0 F6000 X142.488 Y107.982
G1 F1200 X123.908 Y89.401 E93.71292
G0 F6000 X123.908 Y88.835
G1 F1200 X142.488 Y107.416 E94.2373
G0 F6000 X142.488 Y106.85
G1 F1200 X123.908 Y88.27 E94.76167
G0 F6000 X123.964 Y87.76
G1 F1200 X142.488 Y106.285 E95.28447
G0 F6000 X142.488 Y105.719
G1 F1200 X124.53 Y87.76 E95.7913
G0 F6000 X125.096 Y87.76
G1 F1200 X142.488 Y105.153 E96.28215
G0 F6000 X142.488 Y104.587
G1 F1200 X125.661 Y87.76 E96.75704
G0 F6000 X126.227 Y87.76
G1 F1200 X142.488 Y104.022 E97.21598
G0 F6000 X142.488 Y103.456
G1 F1200 X126.793 Y87.76 E97.65894
G0 F6000 X127.358 Y87.76
G1 F1200 X142.488 Y102.89 E98.08594
G0 F6000 X142.488 Y102.325
G1 F1200 X127.924 Y87.76 E98.49698
G0 F6000 X128.49 Y87.76
G1 F1200 X142.488 Y101.759 E98.89205
G0 F6000 X142.488 Y101.193
G1 F1200 X129.055 Y87.76 E99.27116
G0 F6000 X129.621 Y87.76
G1 F1200 X142.488 Y100.628 E99.63431
G0 F6000 X142.488 Y100.062
G1 F1200 X130.187 Y87.76 E99.98148
G0 F6000 X130.753 Y87.76
G1 F1200 X142.488 Y99.496 E100.31268
G0 F6000 X142.488 Y98.931
G1 F1200 X131.318 Y87.76 E100.62794
G0 F6000 X131.884 Y87.76
G1 F1200 X142.488 Y98.365 E100.92722
G0 F6000 X142.488 Y97.799
G1 F1200 X132.45 Y87.76 E101.21053
G0 F6000 X133.015 Y87.76
G1 F1200 X142.488 Y97.234 E101.47789
G0 F6000 X142.488 Y96.668
G1 F1200 X133.581 Y87.76 E101.72928
G0 F6000 X134.147 Y87.76
G1 F1200 X142.488 Y96.102 E101.9647
G0 F6000 X142.488 Y95.536
G1 F1200 X134.712 Y87.76 E102.18415
G0 F6000 X135.278 Y87.76
G1 F1200 X142.488 Y94.971 E102.38765
G0 F6000 X142.488 Y94.405
G1 F1200 X135.844 Y87.76 E102.57517
G0 F6000 X136.409 Y87.76
G1 F1200 X142.488 Y93.839 E102.74673
G0 F6000 X142.488 Y93.274
G1 F1200 X136.975 Y87.76 E102.90233
G0 F6000 X137.541 Y87.76
G1 F1200 X142.488 Y92.708 E103.04196
G0 F6000 X142.488 Y92.142
G1 F1200 X138.106 Y87.76 E103.16563
G0 F6000 X138.672 Y87.76
G1 F1200 X142.488 Y91.577 E103.27334
