;FLAVOR:Marlin
;TIME:1003
;Filament used: 0.57935m
;Layer height: 0.12
;MINX:101.348
;MINY:88.6
;MINZ:0.12
;MAXX:118.648
;MAXY:132.257
;MAXZ:3.48
;TARGET_MACHINE.NAME:Creality Ender-3 Pro
;Generated with Cura_SteamEngine 5.10.0
; Ender 3 Custom Start G-code
G92 E0 ; Reset Extruder
G28 ; Home all axes
G1 Z5.0 F3000 ; Move Z Axis up a bit during heating to not damage bed
M104 S175 ; Start heating up the nozzle most of the way
M190 S75 ; Start heating the bed, wait until target temperature reached
M109 S205 ; Finish heating the nozzle
G1 Z2.0 F3000 ; Move Z Axis up little to prevent scratching of Heat Bed
G1 X0.1 Y20 Z0.3 F5000.0 ; Move to start position
G1 X0.1 Y200.0 Z0.3 F1500.0 E15 ; Draw the first line
G1 X0.4 Y200.0 Z0.3 F5000.0 ; Move to side a little
G1 X0.4 Y20 Z0.3 F1500.0 E30 ; Draw the second line
G92 E0 ; Reset Extruder
G1 Z2.0 F3000 ; Move Z Axis up little to prevent scratching of Heat Bed
G1 X5 Y20 Z0.3 F5000.0 ; Move over to prevent blob squish
M82 ;absolute extrusion mode
G92 E0
G92 E0
G1 F1500 E-6.5
;LAYER_COUNT:29
;LAYER:0
M107
;MESH:IRSender-Arduino Mount.stl
G0 F6000 X110 Y130.6 Z0.12
;TYPE:WALL-INNER
G1 F1500 E0
G1 F1200 X117.848 Y130.6 E0.15662
G1 X117.848 Y89.4 E0.97881
G1 X102.148 Y89.4 E1.29212
G1 X102.148 Y130.6 E2.11431
G1 X110 Y130.6 E2.271
G0 F6000 X110 Y131
G1 F1200 X118.248 Y131 E2.4356
G1 X118.248 Y89 E3.27376
G1 X101.748 Y89 E3.60303
G1 X101.748 Y131 E4.44119
G1 X110 Y131 E4.60586
G0 F6000 X110 Y131.4
;TYPE:WALL-OUTER
G1 F1200 X118.648 Y131.4 E4.77844
G1 X118.648 Y88.6 E5.63256
G1 X101.348 Y88.6 E5.9778
G1 X101.348 Y131.4 E6.83192
G1 X110 Y131.4 E7.00458
G0 F6000 X110 Y131.09
G0 X110 Y130.5
G0 X110 Y130.24
;TYPE:SKIN
G1 F1200 X102.508 Y130.24 E7.1541
G1 X102.508 Y89.76 E7.96192
G1 X117.488 Y89.76 E8.26086
G1 X117.488 Y130.24 E9.06868
G1 X110 Y130.24 E9.21811
G0 F6000 X110 Y130.5
G0 X102.32 Y130.428
G0 X102.248 Y129.861
G0 X102.708 Y129.861
G1 F1200 X102.887 Y130.04 E9.22316
G0 F6000 X103.453 Y130.04
G1 F1200 X102.708 Y129.295 E9.24419
G0 F6000 X102.708 Y128.729
G1 F1200 X104.018 Y130.04 E9.28118
G0 F6000 X104.584 Y130.04
G1 F1200 X102.708 Y128.164 E9.33412
G0 F6000 X102.708 Y127.598
G1 F1200 X105.15 Y130.04 E9.40304
G0 F6000 X105.715 Y130.04
G1 F1200 X102.708 Y127.032 E9.48792
G0 F6000 X102.708 Y126.467
G1 F1200 X106.281 Y130.04 E9.58875
G0 F6000 X106.847 Y130.04
G1 F1200 X102.708 Y125.901 E9.70557
G0 F6000 X102.708 Y125.335
G1 F1200 X107.412 Y130.04 E9.83834
G0 F6000 X107.978 Y130.04
G1 F1200 X102.708 Y124.77 E9.98707
G0 F6000 X102.708 Y124.204
G1 F1200 X108.544 Y130.04 E10.15177
G0 F6000 X109.109 Y130.04
G1 F1200 X102.708 Y123.638 E10.33244
G0 F6000 X102.708 Y123.073
G1 F1200 X109.675 Y130.04 E10.52906
G0 F6000 X110.241 Y130.04
G1 F1200 X102.708 Y122.507 E10.74166
G0 F6000 X102.708 Y121.941
G1 F1200 X110.806 Y130.04 E10.97022
G0 F6000 X111.372 Y130.04
G1 F1200 X102.708 Y121.376 E11.21473
G0 F6000 X102.708 Y120.81
G1 F1200 X111.938 Y130.04 E11.47522
G0 F6000 X112.504 Y130.04
G1 F1200 X102.708 Y120.244 E11.75169
G0 F6000 X102.708 Y119.679
G1 F1200 X113.069 Y130.04 E12.0441
G0 F6000 X113.635 Y130.04
G1 F1200 X102.708 Y119.113 E12.35248
G0 F6000 X102.708 Y118.547
G1 F1200 X114.201 Y130.04 E12.67684
G0 F6000 X114.766 Y130.04
G1 F1200 X102.708 Y117.981 E13.01715
G0 F6000 X102.708 Y117.416
G1 F1200 X115.332 Y130.04 E13.37343
G0 F6000 X115.898 Y130.04
G1 F1200 X102.708 Y116.85 E13.74568
G0 F6000 X102.708 Y116.284
G1 F1200 X116.463 Y130.04 E14.13389
G0 F6000 X117.029 Y130.04
G1 F1200 X102.708 Y115.719 E14.53806
G0 F6000 X102.708 Y115.153
G1 F1200 X117.288 Y129.733 E14.94954
G0 F6000 X117.288 Y129.167
G1 F1200 X102.708 Y114.587 E15.36102
G0 F6000 X102.708 Y114.022
G1 F1200 X117.288 Y128.602 E15.7725
G0 F6000 X117.288 Y128.036
G1 F1200 X102.708 Y113.456 E16.18398
G0 F6000 X102.708 Y112.89
G1 F1200 X117.288 Y127.47 E16.59546
G0 F6000 X117.288 Y126.904
G1 F1200 X102.708 Y112.325 E17.00692
G0 F6000 X102.708 Y111.759
G1 F1200 X117.288 Y126.339 E17.4184
G0 F6000 X117.288 Y125.773
G1 F1200 X102.708 Y111.193 E17.82988
G0 F6000 X102.708 Y110.628
G1 F1200 X117.288 Y125.207 E18.24134
G0 F6000 X117.288 Y124.642
G1 F1200 X102.708 Y110.062 E18.65282
G0 F6000 X102.708 Y109.496
G1 F1200 X117.288 Y124.076 E19.0643
G0 F6000 X117.288 Y123.51
G1 F1200 X102.708 Y108.931 E19.47577
G0 F6000 X102.708 Y108.365
G1 F1200 X117.288 Y122.945 E19.88725
G0 F6000 X117.288 Y122.379
G1 F1200 X102.708 Y107.799 E20.29873
G0 F6000 X102.708 Y107.233
G1 F1200 X117.288 Y121.813 E20.7102
G0 F6000 X117.288 Y121.248
G1 F1200 X102.708 Y106.668 E21.12168
G0 F6000 X102.708 Y106.102
G1 F1200 X117.288 Y120.682 E21.53316
G0 F6000 X117.288 Y120.116
G1 F1200 X102.708 Y105.536 E21.94464
G0 F6000 X102.708 Y104.971
G1 F1200 X117.288 Y119.551 E22.35612
G0 F6000 X117.288 Y118.985
G1 F1200 X102.708 Y104.405 E22.7676
G0 F6000 X102.708 Y103.839
G1 F1200 X117.288 Y118.419 E23.17908
G0 F6000 X117.288 Y117.853
G1 F1200 X102.708 Y103.274 E23.59054
G0 F6000 X102.708 Y102.708
G1 F1200 X117.288 Y117.288 E24.00202
G0 F6000 X117.288 Y116.722
G1 F1200 X102.708 Y102.142 E24.4135
G0 F6000 X102.708 Y101.577
G1 F1200 X117.288 Y116.156 E24.82497
G0 F6000 X117.288 Y115.591
G1 F1200 X102.708 Y101.011 E25.23645
G0 F6000 X102.708 Y100.445
G1 F1200 X117.288 Y115.025 E25.64793
G0 F6000 X117.288 Y114.459
G1 F1200 X102.708 Y99.88 E26.05939
G0 F6000 X102.708 Y99.314
G1 F1200 X117.288 Y113.894 E26.47087
G0 F6000 X117.288 Y113.328
G1 F1200 X102.708 Y98.748 E26.88235
G0 F6000 X102.708 Y98.182
G1 F1200 X117.288 Y112.762 E27.29383
G0 F6000 X117.288 Y112.197
G1 F1200 X102.708 Y97.617 E27.70531
G0 F6000 X102.708 Y97.051
G1 F1200 X117.288 Y111.631 E28.11679
G0 F6000 X117.288 Y111.065
G1 F1200 X102.708 Y96.485 E28.52827
G0 F6000 X102.708 Y95.92
G1 F1200 X117.288 Y110.5 E28.93974
G0 F6000 X117.288 Y109.934
G1 F1200 X102.708 Y95.354 E29.35122
G0 F6000 X102.708 Y94.788
G1 F1200 X117.288 Y109.368 E29.7627
G0 F6000 X117.288 Y108.803
G1 F1200 X102.708 Y94.223 E30.17418
G0 F6000 X102.708 Y93.657
G1 F1200 X117.288 Y108.237 E30.58566
G0 F6000 X117.288 Y107.671
G1 F1200 X102.708 Y93.091 E30.99714
G0 F6000 X102.708 Y92.526
G1 F1200 X117.288 Y107.105 E31.40861
G0 F6000 X117.288 Y106.54
G1 F1200 X102.708 Y91.96 E31.82008
G0 F6000 X102.708 Y91.394
G1 F1200 X117.288 Y105.974 E32.23156
G0 F6000 X117.288 Y105.408
G1 F1200 X102.708 Y90.829 E32.64303
G0 F6000 X102.708 Y90.263
G1 F1200 X117.288 Y104.843 E33.05451
G0 F6000 X117.288 Y104.277
G1 F1200 X102.971 Y89.96 E33.45856
G0 F6000 X103.537 Y89.96
G1 F1200 X117.288 Y103.711 E33.84665
G0 F6000 X117.288 Y103.146
G1 F1200 X104.102 Y89.96 E34.21878
G0 F6000 X104.668 Y89.96
G1 F1200 X117.288 Y102.58 E34.57495
G0 F6000 X117.288 Y102.014
G1 F1200 X105.234 Y89.96 E34.91514
G0 F6000 X105.799 Y89.96
G1 F1200 X117.288 Y101.449 E35.23938
G0 F6000 X117.288 Y100.883
G1 F1200 X106.365 Y89.96 E35.54765
G0 F6000 X106.931 Y89.96
G1 F1200 X117.288 Y100.317 E35.83995
G0 F6000 X117.288 Y99.752
G1 F1200 X107.496 Y89.96 E36.1163
G0 F6000 X108.062 Y89.96
G1 F1200 X117.288 Y99.186 E36.37668
G0 F6000 X117.288 Y98.62
G1 F1200 X108.628 Y89.96 E36.62108
G0 F6000 X109.194 Y89.96
G1 F1200 X117.288 Y98.054 E36.84951
G0 F6000 X117.288 Y97.489
G1 F1200 X109.759 Y89.96 E37.062
G0 F6000 X110.325 Y89.96
G1 F1200 X117.288 Y96.923 E37.25851
G0 F6000 X117.288 Y96.357
G1 F1200 X110.891 Y89.96 E37.43905
G0 F6000 X111.456 Y89.96
G1 F1200 X117.288 Y95.792 E37.60364
G0 F6000 X117.288 Y95.226
G1 F1200 X112.022 Y89.96 E37.75226
G0 F6000 X112.588 Y89.96
G1 F1200 X117.288 Y94.66 E37.8849
G0 F6000 X117.288 Y94.095
G1 F1200 X113.153 Y89.96 E38.0016
G0 F6000 X113.719 Y89.96
G1 F1200 X117.288 Y93.529 E38.10232
G0 F6000 X117.288 Y92.963
G1 F1200 X114.285 Y89.96 E38.18707
G0 F6000 X114.85 Y89.96
G1 F1200 X117.288 Y92.398 E38.25588
G0 F6000 X117.288 Y91.832
G1 F1200 X115.416 Y89.96 E38.30871
G0 F6000 X115.982 Y89.96
G1 F1200 X117.288 Y91.266 E38.34557
G0 F6000 X117.288 Y90.701
G1 F1200 X116.547 Y89.96 E38.36648
G0 F6000 X117.113 Y89.96
G1 F1200 X117.288 Y90.135 E38.37142
M104 S205
G1 F1500 E31.87142
;MESH:NONMESH
G0 F300 X117.288 Y90.135 Z0.24
G0 F6000 X117.748 Y90.135
G0 X117.676 Y130.428
G0 X110 Y130.6
;TIME_ELAPSED:109.485524
;LAYER:1
M140 S65
M106 S85
;TYPE:WALL-INNER
;MESH:IRSender-Arduino Mount.stl
G1 F1500 E38.37142
G1 F1950 X117.848 Y130.6 E38.52804
G1 X117.848 Y89.4 E39.35023
G1 X102.148 Y89.4 E39.66354
G1 X102.148 Y130.6 E40.48573
G1 X110 Y130.6 E40.64242
G0 F9750 X110 Y131
G1 F1950 X118.248 Y131 E40.80702
G1 X118.248 Y89 E41.64518
G1 X101.748 Y89 E41.97445
G1 X101.748 Y131 E42.81261
G1 X110 Y131 E42.97728
G0 F9750 X110 Y131.4
;TYPE:WALL-OUTER
G1 F1950 X118.648 Y131.4 E43.14986
G1 X118.648 Y88.6 E44.00399
G1 X101.348 Y88.6 E44.34923
G1 X101.348 Y131.4 E45.20335
G1 X110 Y131.4 E45.37601
G0 F9750 X110 Y131.09
G0 X110 Y130.5
G0 X110 Y130.24
;TYPE:SKIN
G1 F1950 X102.508 Y130.24 E45.52552
G1 X102.508 Y89.76 E46.33334
G1 X117.488 Y89.76 E46.63228
G1 X117.488 Y130.24 E47.4401
G1 X110 Y130.24 E47.58953
G0 F9750 X110 Y130.5
G0 X117.676 Y130.428
G0 X117.748 Y129.917
G0 X117.288 Y129.917
G1 F1950 X117.164 Y130.04 E47.59302
G0 F9750 X116.598 Y130.04
G1 F1950 X117.288 Y129.351 E47.61248
G0 F9750 X117.288 Y128.785
G1 F1950 X116.033 Y130.04 E47.6479
G0 F9750 X115.467 Y130.04
G1 F1950 X117.288 Y128.22 E47.69928
G0 F9750 X117.288 Y127.654
G1 F1950 X114.901 Y130.04 E47.76663
G0 F9750 X114.336 Y130.04
G1 F1950 X117.288 Y127.088 E47.84994
G0 F9750 X117.288 Y126.523
G1 F1950 X113.77 Y130.04 E47.94921
G0 F9750 X113.204 Y130.04
G1 F1950 X117.288 Y125.957 E48.06446
G0 F9750 X117.288 Y125.391
G1 F1950 X112.639 Y130.04 E48.19566
G0 F9750 X112.073 Y130.04
G1 F1950 X117.288 Y124.826 E48.34283
G0 F9750 X117.288 Y124.26
G1 F1950 X111.507 Y130.04 E48.50596
G0 F9750 X110.942 Y130.04
G1 F1950 X117.288 Y123.694 E48.68506
G0 F9750 X117.288 Y123.129
G1 F1950 X110.376 Y130.04 E48.88012
G0 F9750 X109.81 Y130.04
G1 F1950 X117.288 Y122.563 E49.09115
G0 F9750 X117.288 Y121.997
G1 F1950 X109.244 Y130.04 E49.31816
G0 F9750 X108.679 Y130.04
G1 F1950 X117.288 Y121.431 E49.56112
G0 F9750 X117.288 Y120.866
G1 F1950 X108.113 Y130.04 E49.82004
G0 F9750 X107.547 Y130.04
G1 F1950 X117.288 Y120.3 E50.09494
G0 F9750 X117.288 Y119.734
G1 F1950 X106.982 Y130.04 E50.3858
G0 F9750 X106.416 Y130.04
G1 F1950 X117.288 Y119.169 E50.69262
G0 F9750 X117.288 Y118.603
G1 F1950 X105.85 Y130.04 E51.01541
G0 F9750 X105.285 Y130.04
G1 F1950 X117.288 Y118.037 E51.35416
G0 F9750 X117.288 Y117.472
G1 F1950 X104.719 Y130.04 E51.70887
G0 F9750 X104.153 Y130.04
G1 F1950 X117.288 Y116.906 E52.07955
G0 F9750 X117.288 Y116.34
G1 F1950 X103.588 Y130.04 E52.4662
G0 F9750 X103.022 Y130.04
G1 F1950 X117.288 Y115.775 E52.8688
G0 F9750 X117.288 Y115.209
G1 F1950 X102.708 Y129.789 E53.28028
G0 F9750 X102.708 Y129.223
G1 F1950 X117.288 Y114.643 E53.69176
G0 F9750 X117.288 Y114.078
G1 F1950 X102.708 Y128.657 E54.10322
G0 F9750 X102.708 Y128.092
G1 F1950 X117.288 Y113.512 E54.5147
G0 F9750 X117.288 Y112.946
G1 F1950 X102.708 Y127.526 E54.92618
G0 F9750 X102.708 Y126.96
G1 F1950 X117.288 Y112.38 E55.33766
G0 F9750 X117.288 Y111.815
G1 F1950 X102.708 Y126.395 E55.74914
G0 F9750 X102.708 Y125.829
G1 F1950 X117.288 Y111.249 E56.16062
G0 F9750 X117.288 Y110.683
G1 F1950 X102.708 Y125.263 E56.5721
G0 F9750 X102.708 Y124.698
G1 F1950 X117.288 Y110.118 E56.98358
G0 F9750 X117.288 Y109.552
G1 F1950 X102.708 Y124.132 E57.39506
G0 F9750 X102.708 Y123.566
G1 F1950 X117.288 Y108.986 E57.80653
G0 F9750 X117.288 Y108.421
G1 F1950 X102.708 Y123.001 E58.21801
G0 F9750 X102.708 Y122.435
G1 F1950 X117.288 Y107.855 E58.62949
G0 F9750 X117.288 Y107.289
G1 F1950 X102.708 Y121.869 E59.04097
G0 F9750 X102.708 Y121.303
G1 F1950 X117.288 Y106.724 E59.45244
G0 F9750 X117.288 Y106.158
G1 F1950 X102.708 Y120.738 E59.86392
G0 F9750 X102.708 Y120.172
G1 F1950 X117.288 Y105.592 E60.2754
G0 F9750 X117.288 Y105.027
G1 F1950 X102.708 Y119.606 E60.68686
G0 F9750 X102.708 Y119.041
G1 F1950 X117.288 Y104.461 E61.09834
G0 F9750 X117.288 Y103.895
G1 F1950 X102.708 Y118.475 E61.50982
G0 F9750 X102.708 Y117.909
G1 F1950 X117.288 Y103.33 E61.92128
G0 F9750 X117.288 Y102.764
G1 F1950 X102.708 Y117.344 E62.33276
G0 F9750 X102.708 Y116.778
G1 F1950 X117.288 Y102.198 E62.74424
G0 F9750 X117.288 Y101.632
G1 F1950 X102.708 Y116.212 E63.15572
G0 F9750 X102.708 Y115.647
G1 F1950 X117.288 Y101.067 E63.5672
G0 F9750 X117.288 Y100.501
G1 F1950 X102.708 Y115.081 E63.97868
G0 F9750 X102.708 Y114.515
G1 F1950 X117.288 Y99.935 E64.39016
G0 F9750 X117.288 Y99.37
G1 F1950 X102.708 Y113.95 E64.80164
G0 F9750 X102.708 Y113.384
G1 F1950 X117.288 Y98.804 E65.21312
G0 F9750 X117.288 Y98.238
G1 F1950 X102.708 Y112.818 E65.6246
G0 F9750 X102.708 Y112.252
G1 F1950 X117.288 Y97.673 E66.03606
G0 F9750 X117.288 Y97.107
G1 F1950 X102.708 Y111.687 E66.44754
G0 F9750 X102.708 Y111.121
G1 F1950 X117.288 Y96.541 E66.85902
G0 F9750 X117.288 Y95.976
G1 F1950 X102.708 Y110.555 E67.27048
G0 F9750 X102.708 Y109.99
G1 F1950 X117.288 Y95.41 E67.68196
G0 F9750 X117.288 Y94.844
G1 F1950 X102.708 Y109.424 E68.09344
G0 F9750 X102.708 Y108.858
G1 F1950 X117.288 Y94.279 E68.50491
G0 F9750 X117.288 Y93.713
G1 F1950 X102.708 Y108.293 E68.91639
G0 F9750 X102.708 Y107.727
G1 F1950 X117.288 Y93.147 E69.32786
G0 F9750 X117.288 Y92.581
G1 F1950 X102.708 Y107.161 E69.73934
G0 F9750 X102.708 Y106.596
G1 F1950 X117.288 Y92.016 E70.15082
G0 F9750 X117.288 Y91.45
G1 F1950 X102.708 Y106.03 E70.5623
G0 F9750 X102.708 Y105.464
G1 F1950 X117.288 Y90.884 E70.97378
G0 F9750 X117.288 Y90.319
G1 F1950 X102.708 Y104.899 E71.38526
G0 F9750 X102.708 Y104.333
G1 F1950 X117.081 Y89.96 E71.7909
G0 F9750 X116.516 Y89.96
G1 F1950 X102.708 Y103.767 E72.18058
G0 F9750 X102.708 Y103.202
G1 F1950 X115.95 Y89.96 E72.55429
G0 F9750 X115.384 Y89.96
G1 F1950 X102.708 Y102.636 E72.91204
G0 F9750 X102.708 Y102.07
G1 F1950 X114.819 Y89.96 E73.25382
G0 F9750 X114.253 Y89.96
G1 F1950 X102.708 Y101.504 E73.57963
G0 F9750 X102.708 Y100.939
G1 F1950 X113.687 Y89.96 E73.88948
G0 F9750 X113.122 Y89.96
G1 F1950 X102.708 Y100.373 E74.18337
G0 F9750 X102.708 Y99.807
G1 F1950 X112.556 Y89.96 E74.46129
G0 F9750 X111.99 Y89.96
G1 F1950 X102.708 Y99.242 E74.72325
G0 F9750 X102.708 Y98.676
G1 F1950 X111.424 Y89.96 E74.96923
G0 F9750 X110.859 Y89.96
G1 F1950 X102.708 Y98.11 E75.19926
G0 F9750 X102.708 Y97.545
G1 F1950 X110.293 Y89.96 E75.41332
G0 F9750 X109.727 Y89.96
G1 F1950 X102.708 Y96.979 E75.61142
G0 F9750 X102.708 Y96.413
G1 F1950 X109.162 Y89.96 E75.79355
G0 F9750 X108.596 Y89.96
G1 F1950 X102.708 Y95.848 E75.95972
G0 F9750 X102.708 Y95.282
G1 F1950 X108.03 Y89.96 E76.10992
G0 F9750 X107.465 Y89.96
G1 F1950 X102.708 Y94.716 E76.24416
G0 F9750 X102.708 Y94.151
G1 F1950 X106.899 Y89.96 E76.36244
G0 F9750 X106.333 Y89.96
G1 F1950 X102.708 Y93.585 E76.46474
G0 F9750 X102.708 Y93.019
G1 F1950 X105.768 Y89.96 E76.55109
G0 F9750 X105.202 Y89.96
G1 F1950 X102.708 Y92.454 E76.62147
G0 F9750 X102.708 Y91.888
G1 F1950 X104.636 Y89.96 E76.67589
G0 F9750 X104.071 Y89.96
G1 F1950 X102.708 Y91.322 E76.71434
G0 F9750 X102.708 Y90.756
G1 F1950 X103.505 Y89.96 E76.73682
G0 F9750 X102.939 Y89.96
G1 F1950 X102.708 Y90.191 E76.74334
G1 F1500 E70.24334
;MESH:NONMESH
G0 F300 X102.708 Y90.191 Z0.36
G0 F9750 X102.248 Y90.191
G0 X102.32 Y130.428
G0 X110 Y130.6
;TIME_ELAPSED:180.347324
;LAYER:2
M106 S170
;TYPE:WALL-INNER
;MESH:IRSender-Arduino Mount.stl
G1 F1500 E76.74334
G1 F2700 X117.848 Y130.6 E76.89995
G1 X117.848 Y89.4 E77.72214
G1 X102.148 Y89.4 E78.03545
G1 X102.148 Y130.6 E78.85764
G1 X110 Y130.6 E79.01434
G0 F13500 X110 Y131
G1 F2700 X118.248 Y131 E79.17894
G1 X118.248 Y89 E80.01709
G1 X101.748 Y89 E80.34637
G1 X101.748 Y131 E81.18452
G1 X110 Y131 E81.3492
G0 F13500 X110 Y131.4
;TYPE:WALL-OUTER
G1 F2700 X118.648 Y131.4 E81.52178
G1 X118.648 Y88.6 E82.3759
G1 X101.348 Y88.6 E82.72114
G1 X101.348 Y131.4 E83.57526
G1 X110 Y131.4 E83.74792
G0 F13500 X110 Y131.09
G0 X110 Y130.5
G0 X110 Y130.24
;TYPE:SKIN
G1 F2700 X102.508 Y130.24 E83.89743
G1 X102.508 Y89.76 E84.70525
G1 X117.488 Y89.76 E85.0042
G1 X117.488 Y130.24 E85.81202
G1 X110 Y130.24 E85.96145
G0 F13500 X110 Y130.5
G0 X102.32 Y130.428
G0 X102.248 Y129.861
