;FLAVOR:Marlin
;TIME:2695
;Filament used: 1.62969m
;Layer height: 0.12
;MINX:99.348
;MINY:84.735
;MINZ:0.12
;MAXX:120.648
;MAXY:133.4
;MAXZ:9.96
;TARGET_MACHINE.NAME:Creality Ender-3 Pro
;Generated with Cura_SteamEngine 5.10.0
; Ender 3 Custom Start G-code
G92 E0 ; Reset Extruder
G28 ; Home all axes
G1 Z5.0 F3000 ; Move Z Axis up a bit during heating to not damage bed
M104 S175 ; Start heating up the nozzle most of the way
M190 S65 ; Start heating the bed, wait until target temperature reached
M109 S205 ; Finish heating the nozzle
G1 Z2.0 F3000 ; Move Z Axis up little to prevent scratching of Heat Bed
G1 X0.1 Y20 Z0.3 F5000.0 ; Move to start position
G1 X0.1 Y200.0 Z0.3 F1500.0 E15 ; Draw the first line
G1 X0.4 Y200.0 Z0.3 F5000.0 ; Move to side a little
G1 X0.4 Y20 Z0.3 F1500.0 E30 ; Draw the second line
G92 E0 ; Reset Extruder
G1 Z2.0 F3000 ; Move Z Axis up little to prevent scratching of Heat Bed
G1 X5 Y20 Z0.3 F5000.0 ; Move over to prevent blob squish
M82 ;absolute extrusion mode
G92 E0
G92 E0
G1 F1500 E-6.5
;LAYER_COUNT:83
;LAYER:0
M107
;MESH:IRSender-Arduino Box.stl
G0 F6000 X119.848 Y132.6 Z0.12
;TYPE:WALL-INNER
G1 F1500 E0
G1 F1200 X119.848 Y87.4 E0.90201
G1 X100.148 Y87.4 E1.29515
G1 X100.148 Y132.6 E2.19716
G1 X119.848 Y132.6 E2.5903
G0 F6000 X120.248 Y133
G1 F1200 X120.248 Y87 E3.50828
G1 X99.748 Y87 E3.91738
G1 X99.748 Y133 E4.83536
G1 X120.248 Y133 E5.24446
G0 F6000 X120.648 Y133.4
;TYPE:WALL-OUTER
G1 F1200 X120.648 Y86.6 E6.1784
G1 X99.348 Y86.6 E6.60347
G1 X99.348 Y133.4 E7.53741
G1 X120.648 Y133.4 E7.96248
G0 F6000 X120.37 Y133.12
G0 X119.748 Y132.24
G0 X119.488 Y132.24
;TYPE:SKIN
G1 F1200 X100.508 Y132.24 E8.34124
G1 X100.508 Y87.76 E9.22889
G1 X119.488 Y87.76 E9.60766
G1 X119.488 Y132.24 E10.4953
G0 F6000 X119.748 Y132.24
G0 X100.927 Y132.5
G0 X100.927 Y132.04
G1 F1200 X100.708 Y131.82 E10.5015
G0 F6000 X100.708 Y131.255
G1 F1200 X101.493 Y132.04 E10.52365
G0 F6000 X102.059 Y132.04
G1 F1200 X100.708 Y130.689 E10.56178
G0 F6000 X100.708 Y130.123
G1 F1200 X102.625 Y132.04 E10.61588
G0 F6000 X103.19 Y132.04
G1 F1200 X100.708 Y129.558 E10.68593
G0 F6000 X100.708 Y128.992
G1 F1200 X103.756 Y132.04 E10.77195
G0 F6000 X104.322 Y132.04
G1 F1200 X100.708 Y128.426 E10.87394
G0 F6000 X100.708 Y127.86
G1 F1200 X104.887 Y132.04 E10.9919
G0 F6000 X105.453 Y132.04
G1 F1200 X100.708 Y127.295 E11.12581
G0 F6000 X100.708 Y126.729
G1 F1200 X106.019 Y132.04 E11.2757
G0 F6000 X106.584 Y132.04
G1 F1200 X100.708 Y126.163 E11.44155
G0 F6000 X100.708 Y125.598
G1 F1200 X107.15 Y132.04 E11.62336
G0 F6000 X107.716 Y132.04
G1 F1200 X100.708 Y125.032 E11.82114
G0 F6000 X100.708 Y124.466
G1 F1200 X108.281 Y132.04 E12.03488
G0 F6000 X108.847 Y132.04
G1 F1200 X100.708 Y123.901 E12.26458
G0 F6000 X100.708 Y123.335
G1 F1200 X109.413 Y132.04 E12.51025
G0 F6000 X109.978 Y132.04
G1 F1200 X100.708 Y122.769 E12.77189
G0 F6000 X100.708 Y122.204
G1 F1200 X110.544 Y132.04 E13.04948
G0 F6000 X111.11 Y132.04
G1 F1200 X100.708 Y121.638 E13.34305
G0 F6000 X100.708 Y121.072
G1 F1200 X111.675 Y132.04 E13.65257
G0 F6000 X112.241 Y132.04
G1 F1200 X100.708 Y120.507 E13.97806
G0 F6000 X100.708 Y119.941
G1 F1200 X112.807 Y132.04 E14.31952
G0 F6000 X113.373 Y132.04
G1 F1200 X100.708 Y119.375 E14.67695
G0 F6000 X100.708 Y118.809
G1 F1200 X113.938 Y132.04 E15.05034
G0 F6000 X114.504 Y132.04
G1 F1200 X100.708 Y118.244 E15.4397
G0 F6000 X100.708 Y117.678
G1 F1200 X115.07 Y132.04 E15.84502
G0 F6000 X115.635 Y132.04
G1 F1200 X100.708 Y117.112 E16.26631
G0 F6000 X100.708 Y116.547
G1 F1200 X116.201 Y132.04 E16.70356
G0 F6000 X116.767 Y132.04
G1 F1200 X100.708 Y115.981 E17.15678
G0 F6000 X100.708 Y115.415
G1 F1200 X117.332 Y132.04 E17.62596
G0 F6000 X117.898 Y132.04
G1 F1200 X100.708 Y114.85 E18.11109
G0 F6000 X100.708 Y114.284
G1 F1200 X118.464 Y132.04 E18.61221
G0 F6000 X119.029 Y132.04
G1 F1200 X100.708 Y113.718 E19.12928
G0 F6000 X100.708 Y113.153
G1 F1200 X119.288 Y131.733 E19.65365
G0 F6000 X119.288 Y131.168
G1 F1200 X100.708 Y112.587 E20.17803
G0 F6000 X100.708 Y112.021
G1 F1200 X119.288 Y130.602 E20.70241
G0 F6000 X119.288 Y130.036
G1 F1200 X100.708 Y111.456 E21.22678
G0 F6000 X100.708 Y110.89
G1 F1200 X119.288 Y129.471 E21.75116
G0 F6000 X119.288 Y128.905
G1 F1200 X100.708 Y110.324 E22.27554
G0 F6000 X100.708 Y109.759
G1 F1200 X119.288 Y128.339 E22.79991
G0 F6000 X119.288 Y127.773
G1 F1200 X100.708 Y109.193 E23.32428
G0 F6000 X100.708 Y108.627
G1 F1200 X119.288 Y127.208 E23.84866
G0 F6000 X119.288 Y126.642
G1 F1200 X100.708 Y108.061 E24.37304
G0 F6000 X100.708 Y107.496
G1 F1200 X119.288 Y126.076 E24.89741
G0 F6000 X119.288 Y125.511
G1 F1200 X100.708 Y106.93 E25.42179
G0 F6000 X100.708 Y106.364
G1 F1200 X119.288 Y124.945 E25.94617
G0 F6000 X119.288 Y124.379
G1 F1200 X100.708 Y105.799 E26.47054
G0 F6000 X100.708 Y105.233
G1 F1200 X119.288 Y123.814 E26.99492
G0 F6000 X119.288 Y123.248
G1 F1200 X100.708 Y104.667 E27.5193
G0 F6000 X100.708 Y104.102
G1 F1200 X119.288 Y122.682 E28.04367
G0 F6000 X119.288 Y122.117
G1 F1200 X100.708 Y103.536 E28.56805
G0 F6000 X100.708 Y102.97
G1 F1200 X119.288 Y121.551 E29.09244
G0 F6000 X119.288 Y120.985
G1 F1200 X100.708 Y102.405 E29.6168
G0 F6000 X100.708 Y101.839
G1 F1200 X119.288 Y120.42 E30.14119
G0 F6000 X119.288 Y119.854
G1 F1200 X100.708 Y101.273 E30.66557
G0 F6000 X100.708 Y100.708
G1 F1200 X119.288 Y119.288 E31.18994
G0 F6000 X119.288 Y118.723
G1 F1200 X100.708 Y100.142 E31.71432
G0 F6000 X100.708 Y99.576
G1 F1200 X119.288 Y118.157 E32.2387
G0 F6000 X119.288 Y117.591
G1 F1200 X100.708 Y99.011 E32.76307
G0 F6000 X100.708 Y98.445
G1 F1200 X119.288 Y117.025 E33.28743
G0 F6000 X119.288 Y116.46
G1 F1200 X100.708 Y97.879 E33.81182
G0 F6000 X100.708 Y97.313
G1 F1200 X119.288 Y115.894 E34.3362
G0 F6000 X119.288 Y115.328
G1 F1200 X100.708 Y96.748 E34.86057
G0 F6000 X100.708 Y96.182
G1 F1200 X119.288 Y114.763 E35.38495
G0 F6000 X119.288 Y114.197
G1 F1200 X100.708 Y95.616 E35.90933
G0 F6000 X100.708 Y95.051
G1 F1200 X119.288 Y113.631 E36.4337
G0 F6000 X119.288 Y113.066
G1 F1200 X100.708 Y94.485 E36.95808
G0 F6000 X100.708 Y93.919
G1 F1200 X119.288 Y112.5 E37.48246
G0 F6000 X119.288 Y111.934
G1 F1200 X100.708 Y93.354 E38.00683
G0 F6000 X100.708 Y92.788
G1 F1200 X119.288 Y111.369 E38.53121
G0 F6000 X119.288 Y110.803
G1 F1200 X100.708 Y92.222 E39.05559
G0 F6000 X100.708 Y91.657
G1 F1200 X119.288 Y110.237 E39.57996
G0 F6000 X119.288 Y109.672
G1 F1200 X100.708 Y91.091 E40.10434
G0 F6000 X100.708 Y90.525
G1 F1200 X119.288 Y109.106 E40.62872
G0 F6000 X119.288 Y108.54
G1 F1200 X100.708 Y89.96 E41.15309
G0 F6000 X100.708 Y89.394
G1 F1200 X119.288 Y107.974 E41.67746
G0 F6000 X119.288 Y107.409
G1 F1200 X100.708 Y88.828 E42.20184
G0 F6000 X100.708 Y88.262
G1 F1200 X119.288 Y106.843 E42.72622
G0 F6000 X119.288 Y106.277
G1 F1200 X100.971 Y87.96 E43.24317
G0 F6000 X101.536 Y87.96
G1 F1200 X119.288 Y105.712 E43.74417
G0 F6000 X119.288 Y105.146
G1 F1200 X102.102 Y87.96 E44.22919
G0 F6000 X102.668 Y87.96
G1 F1200 X119.288 Y104.58 E44.69825
G0 F6000 X119.288 Y104.015
G1 F1200 X103.233 Y87.96 E45.15135
G0 F6000 X103.799 Y87.96
G1 F1200 X119.288 Y103.449 E45.58849
G0 F6000 X119.288 Y102.883
G1 F1200 X104.365 Y87.96 E46.00965
G0 F6000 X104.93 Y87.96
G1 F1200 X119.288 Y102.318 E46.41486
G0 F6000 X119.288 Y101.752
G1 F1200 X105.496 Y87.96 E46.8041
G0 F6000 X106.062 Y87.96
G1 F1200 X119.288 Y101.186 E47.17737
G0 F6000 X119.288 Y100.621
G1 F1200 X106.627 Y87.96 E47.53469
G0 F6000 X107.193 Y87.96
G1 F1200 X119.288 Y100.055 E47.87603
G0 F6000 X119.288 Y99.489
G1 F1200 X107.759 Y87.96 E48.20141
G0 F6000 X108.325 Y87.96
G1 F1200 X119.288 Y98.924 E48.51082
G0 F6000 X119.288 Y98.358
G1 F1200 X108.89 Y87.96 E48.80427
G0 F6000 X109.456 Y87.96
G1 F1200 X119.288 Y97.792 E49.08175
G0 F6000 X119.288 Y97.226
G1 F1200 X110.022 Y87.96 E49.34326
G0 F6000 X110.587 Y87.96
G1 F1200 X119.288 Y96.661 E49.58882
G0 F6000 X119.288 Y96.095
G1 F1200 X111.153 Y87.96 E49.81841
G0 F6000 X111.719 Y87.96
G1 F1200 X119.288 Y95.529 E50.03202
G0 F6000 X119.288 Y94.964
G1 F1200 X112.284 Y87.96 E50.22969
G0 F6000 X112.85 Y87.96
G1 F1200 X119.288 Y94.398 E50.41139
G0 F6000 X119.288 Y93.832
G1 F1200 X113.416 Y87.96 E50.57711
G0 F6000 X113.981 Y87.96
G1 F1200 X119.288 Y93.267 E50.72688
G0 F6000 X119.288 Y92.701
G1 F1200 X114.547 Y87.96 E50.86068
G0 F6000 X115.113 Y87.96
G1 F1200 X119.288 Y92.135 E50.97851
G0 F6000 X119.288 Y91.57
G1 F1200 X115.678 Y87.96 E51.08039
G0 F6000 X116.244 Y87.96
G1 F1200 X119.288 Y91.004 E51.1663
G0 F6000 X119.288 Y90.438
G1 F1200 X116.81 Y87.96 E51.23623
G0 F6000 X117.375 Y87.96
G1 F1200 X119.288 Y89.873 E51.29022
G0 F6000 X119.288 Y89.307
G1 F1200 X117.941 Y87.96 E51.32824
G0 F6000 X118.507 Y87.96
G1 F1200 X119.288 Y88.741 E51.35028
G0 F6000 X119.288 Y88.176
G1 F1200 X119.073 Y87.96 E51.35636
M104 S205
G1 F1500 E44.85636
;MESH:NONMESH
G0 F300 X119.073 Y87.96 Z0.24
G0 F6000 X119.073 Y87.5
G0 X119.676 Y87.572
G0 X119.848 Y132.6
;TIME_ELAPSED:142.965330
;LAYER:1
M106 S85
;TYPE:WALL-INNER
;MESH:IRSender-Arduino Box.stl
G1 F1500 E51.35636
G1 F1950 X119.848 Y87.4 E52.25838
G1 X100.148 Y87.4 E52.65151
G1 X100.148 Y132.6 E53.55353
G1 X119.848 Y132.6 E53.94666
G0 F9750 X120.248 Y133
G1 F1950 X120.248 Y87 E54.86464
G1 X99.748 Y87 E55.27374
G1 X99.748 Y133 E56.19172
G1 X120.248 Y133 E56.60082
G0 F9750 X120.648 Y133.4
;TYPE:WALL-OUTER
G1 F1950 X120.648 Y86.6 E57.53476
G1 X99.348 Y86.6 E57.95983
G1 X99.348 Y133.4 E58.89377
G1 X120.648 Y133.4 E59.31884
G0 F9750 X120.37 Y133.12
G0 X119.748 Y132.24
G0 X119.488 Y132.24
;TYPE:SKIN
G1 F1950 X100.508 Y132.24 E59.6976
G1 X100.508 Y87.76 E60.58525
G1 X119.488 Y87.76 E60.96402
G1 X119.488 Y132.24 E61.85166
G0 F9750 X119.287 Y131.877
G1 F1950 X119.124 Y132.04 E61.85626
G0 F9750 X118.558 Y132.04
G1 F1950 X119.287 Y131.311 E61.87684
G0 F9750 X119.287 Y130.745
G1 F1950 X117.993 Y132.04 E61.91337
G0 F9750 X117.427 Y132.04
G1 F1950 X119.287 Y130.18 E61.96587
G0 F9750 X119.287 Y129.614
G1 F1950 X116.861 Y132.04 E62.03433
G0 F9750 X116.296 Y132.04
G1 F1950 X119.287 Y129.048 E62.11876
G0 F9750 X119.287 Y128.483
G1 F1950 X115.73 Y132.04 E62.21914
G0 F9750 X115.164 Y132.04
G1 F1950 X119.287 Y127.917 E62.3355
G0 F9750 X119.287 Y127.351
G1 F1950 X114.599 Y132.04 E62.46782
G0 F9750 X114.033 Y132.04
G1 F1950 X119.287 Y126.786 E62.6161
G0 F9750 X119.287 Y126.22
G1 F1950 X113.467 Y132.04 E62.78036
G0 F9750 X112.902 Y132.04
G1 F1950 X119.287 Y125.654 E62.96057
G0 F9750 X119.287 Y125.089
G1 F1950 X112.336 Y132.04 E63.15674
G0 F9750 X111.77 Y132.04
G1 F1950 X119.287 Y124.523 E63.36889
G0 F9750 X119.287 Y123.957
G1 F1950 X111.205 Y132.04 E63.59699
G0 F9750 X110.639 Y132.04
G1 F1950 X119.287 Y123.392 E63.84106
G0 F9750 X119.287 Y122.826
G1 F1950 X110.073 Y132.04 E64.1011
G0 F9750 X109.508 Y132.04
G1 F1950 X119.287 Y122.26 E64.3771
G0 F9750 X119.287 Y121.694
G1 F1950 X108.942 Y132.04 E64.66907
G0 F9750 X108.376 Y132.04
G1 F1950 X119.287 Y121.129 E64.977
G0 F9750 X119.287 Y120.563
G1 F1950 X107.81 Y132.04 E65.30091
G0 F9750 X107.245 Y132.04
G1 F1950 X119.287 Y119.997 E65.64077
G0 F9750 X119.287 Y119.432
G1 F1950 X106.679 Y132.04 E65.9966
G0 F9750 X106.113 Y132.04
G1 F1950 X119.287 Y118.866 E66.3684
G0 F9750 X119.287 Y118.3
G1 F1950 X105.548 Y132.04 E66.75615
G0 F9750 X104.982 Y132.04
G1 F1950 X119.287 Y117.735 E67.15987
G0 F9750 X119.287 Y117.169
G1 F1950 X104.416 Y132.04 E67.57956
G0 F9750 X103.851 Y132.04
G1 F1950 X119.287 Y116.603 E68.01521
G0 F9750 X119.287 Y116.038
G1 F1950 X103.285 Y132.04 E68.46683
G0 F9750 X102.719 Y132.04
G1 F1950 X119.287 Y115.472 E68.93441
G0 F9750 X119.287 Y114.906
G1 F1950 X102.154 Y132.04 E69.41795
G0 F9750 X101.588 Y132.04
G1 F1950 X119.287 Y114.341 E69.91746
G0 F9750 X119.287 Y113.775
G1 F1950 X101.022 Y132.04 E70.43294
G0 F9750 X100.708 Y131.788
G1 F1950 X119.287 Y113.209 E70.95728
G0 F9750 X119.287 Y112.644
G1 F1950 X100.708 Y131.223 E71.48162
G0 F9750 X100.708 Y130.657
G1 F1950 X119.287 Y112.078 E72.00596
G0 F9750 X119.287 Y111.512
G1 F1950 X100.708 Y130.091 E72.53029
G0 F9750 X100.708 Y129.526
G1 F1950 X119.287 Y110.946 E73.05465
G0 F9750 X119.287 Y110.381
G1 F1950 X100.708 Y128.96 E73.57899
G0 F9750 X100.708 Y128.394
G1 F1950 X119.287 Y109.815 E74.10333
G0 F9750 X119.287 Y109.249
G1 F1950 X100.708 Y127.829 E74.62768
G0 F9750 X100.708 Y127.263
G1 F1950 X119.287 Y108.684 E75.15202
G0 F9750 X119.287 Y108.118
G1 F1950 X100.708 Y126.697 E75.67636
G0 F9750 X100.708 Y126.132
G1 F1950 X119.287 Y107.552 E76.20071
G0 F9750 X119.287 Y106.987
G1 F1950 X100.708 Y125.566 E76.72505
G0 F9750 X100.708 Y125
G1 F1950 X119.287 Y106.421 E77.24939
G0 F9750 X119.287 Y105.855
G1 F1950 X100.708 Y124.435 E77.77375
G0 F9750 X100.708 Y123.869
G1 F1950 X119.287 Y105.29 E78.29809
G0 F9750 X119.287 Y104.724
G1 F1950 X100.708 Y123.303 E78.82243
G0 F9750 X100.708 Y122.737
G1 F1950 X119.287 Y104.158 E79.34676
G0 F9750 X119.287 Y103.593
G1 F1950 X100.708 Y122.172 E79.8711
G0 F9750 X100.708 Y121.606
G1 F1950 X119.287 Y103.027 E80.39544
G0 F9750 X119.287 Y102.461
G1 F1950 X100.708 Y121.04 E80.91978
G0 F9750 X100.708 Y120.475
G1 F1950 X119.287 Y101.896 E81.44412
G0 F9750 X119.287 Y101.33
G1 F1950 X100.708 Y119.909 E81.96846
G0 F9750 X100.708 Y119.343
G1 F1950 X119.287 Y100.764 E82.4928
G0 F9750 X119.287 Y100.198
G1 F1950 X100.708 Y118.778 E83.01716
G0 F9750 X100.708 Y118.212
G1 F1950 X119.287 Y99.633 E83.5415
G0 F9750 X119.287 Y99.067
G1 F1950 X100.708 Y117.646 E84.06583
G0 F9750 X100.708 Y117.081
G1 F1950 X119.287 Y98.501 E84.59019
G0 F9750 X119.287 Y97.936
G1 F1950 X100.708 Y116.515 E85.11453
G0 F9750 X100.708 Y115.949
G1 F1950 X119.287 Y97.37 E85.63887
G0 F9750 X119.287 Y96.804
G1 F1950 X100.708 Y115.384 E86.16322
G0 F9750 X100.708 Y114.818
G1 F1950 X119.287 Y96.239 E86.68756
G0 F9750 X119.287 Y95.673
G1 F1950 X100.708 Y114.252 E87.2119
G0 F9750 X100.708 Y113.687
G1 F1950 X119.287 Y95.107 E87.73625
G0 F9750 X119.287 Y94.542
G1 F1950 X100.708 Y113.121 E88.26059
G0 F9750 X100.708 Y112.555
G1 F1950 X119.287 Y93.976 E88.78493
G0 F9750 X119.287 Y93.41
G1 F1950 X100.708 Y111.989 E89.30927
G0 F9750 X100.708 Y111.424
G1 F1950 X119.287 Y92.845 E89.83361
G0 F9750 X119.287 Y92.279
G1 F1950 X100.708 Y110.858 E90.35795
G0 F9750 X100.708 Y110.292
G1 F1950 X119.287 Y91.713 E90.88229
G0 F9750 X119.287 Y91.147
G1 F1950 X100.708 Y109.727 E91.40664
G0 F9750 X100.708 Y109.161
G1 F1950 X119.287 Y90.582 E91.93098
G0 F9750 X119.287 Y90.016
G1 F1950 X100.708 Y108.595 E92.45532
G0 F9750 X100.708 Y108.03
G1 F1950 X119.287 Y89.45 E92.97968
G0 F9750 X119.287 Y88.885
G1 F1950 X100.708 Y107.464 E93.50402
G0 F9750 X100.708 Y106.898
G1 F1950 X119.287 Y88.319 E94.02836
G0 F9750 X119.081 Y87.96
G1 F1950 X100.708 Y106.333 E94.54688
G0 F9750 X100.708 Y105.767
G1 F1950 X118.515 Y87.96 E95.04943
G0 F9750 X117.95 Y87.96
G1 F1950 X100.708 Y105.201 E95.53603
G0 F9750 X100.708 Y104.636
G1 F1950 X117.384 Y87.96 E96.00666
G0 F9750 X116.818 Y87.96
G1 F1950 X100.708 Y104.07 E96.46132
G0 F9750 X100.708 Y103.504
G1 F1950 X116.253 Y87.96 E96.90002
G0 F9750 X115.687 Y87.96
G1 F1950 X100.708 Y102.938 E97.32274
G0 F9750 X100.708 Y102.373
G1 F1950 X115.121 Y87.96 E97.72951
G0 F9750 X114.556 Y87.96
G1 F1950 X100.708 Y101.807 E98.12032
G0 F9750 X100.708 Y101.241
G1 F1950 X113.99 Y87.96 E98.49515
G0 F9750 X113.424 Y87.96
G1 F1950 X100.708 Y100.676 E98.85402
G0 F9750 X100.708 Y100.11
G1 F1950 X112.858 Y87.96 E99.19692
G0 F9750 X112.293 Y87.96
G1 F1950 X100.708 Y99.544 E99.52386
G0 F9750 X100.708 Y98.979
G1 F1950 X111.727 Y87.96 E99.83484
G0 F9750 X111.161 Y87.96
G1 F1950 X100.708 Y98.413 E100.12985
G0 F9750 X100.708 Y97.847
G1 F1950 X110.596 Y87.96 E100.40889
G0 F9750 X110.03 Y87.96
G1 F1950 X100.708 Y97.282 E100.67198
G0 F9750 X100.708 Y96.716
G1 F1950 X109.464 Y87.96 E100.91909
G0 F9750 X108.899 Y87.96
G1 F1950 X100.708 Y96.15 E101.15025
G0 F9750 X100.708 Y95.585
G1 F1950 X108.333 Y87.96 E101.36544
G0 F9750 X107.767 Y87.96
G1 F1950 X100.708 Y95.019 E101.56466
G0 F9750 X100.708 Y94.453
G1 F1950 X107.202 Y87.96 E101.74792
G0 F9750 X106.636 Y87.96
G1 F1950 X100.708 Y93.888 E101.91522
G0 F9750 X100.708 Y93.322
G1 F1950 X106.07 Y87.96 E102.06655
G0 F9750 X105.505 Y87.96
